;FLAVOR:Marlin
;TIME:4757
;Filament used: 7.41245m
;Layer height: 0.3
;MINX:54.237
;MINY:51.5
;MINZ:0.3
;MAXX:155.765
;MAXY:157.5
;MAXZ:14.4
;Generated with Cura_SteamEngine 5.2.1
M140 S60
M105
M190 S60
M104 S200
M105
M109 S200
M82 ;absolute extrusion mode
G21 ;metric values
G90 ;absolute positioning
M82 ;set extruder to absolute mode
M107 ;start with the fan off
G28 X0 Y0 ;move X/Y to min endstops
G28 Z0 ;move Z to min endstops
G1 Z15.0 F100 ;move the platform down 15mm
G92 E0 ;zero the extruded length
G1 F200 E3 ;extrude 3mm of feed stock
G92 E0 ;zero the extruded length again
G1 F100
G0 Y20 F100
M117 Printing...
G5
G92 E0
G92 E0
G1 F2400 E-6
;LAYER_COUNT:48
;LAYER:0
M107
M204 S3000
M205 X10 Y10
G1 F600 Z0.375
G0 F3000 X56.599 Y53.443 Z0.375
M204 S1800
M205 X8 Y8
;TYPE:SKIRT
G1 F600 Z0.3
G1 F2400 E0
G1 X57.299 Y52.84 E0.06453
G1 X57.889 Y52.436 E0.11448
G1 X58.52 Y52.1 E0.16441
G1 X59.185 Y51.837 E0.21436
G1 X59.876 Y51.649 E0.26437
G1 X60.583 Y51.54 E0.31434
G1 X61.089 Y51.511 E0.34974
G1 X61.762 Y51.5 E0.39675
G1 X148.184 Y51.501 E6.43301
G1 X148.885 Y51.511 E6.48198
G1 X149.599 Y51.561 E6.53197
G1 X150.302 Y51.69 E6.58189
G1 X150.987 Y51.897 E6.63187
G1 X151.644 Y52.18 E6.68184
G1 X152.266 Y52.533 E6.73179
G1 X152.844 Y52.954 E6.78173
G1 X153.464 Y53.514 E6.84009
G1 X154.072 Y54.185 E6.90333
G1 X154.489 Y54.766 E6.95328
G1 X154.839 Y55.39 E7.00326
G1 X155.117 Y56.049 E7.05321
G1 X155.319 Y56.735 E7.10316
G1 X155.444 Y57.439 E7.1531
G1 X155.489 Y58.086 E7.1984
G1 X155.5 Y58.751 E7.24486
G1 X155.5 Y115.503 E11.20877
G1 X155.537 Y118.133 E11.39249
G1 X155.694 Y121.526 E11.62973
G1 X155.759 Y122.531 E11.70007
G1 X155.765 Y123.246 E11.75001
G1 X155.704 Y123.874 E11.79408
G1 X155.333 Y126.393 E11.97192
G1 X155.024 Y128.974 E12.15348
G1 X154.778 Y131.669 E12.3425
G1 X154.613 Y134.278 E12.52509
G1 X154.521 Y136.922 E12.70988
G1 X154.501 Y138.912 E12.84888
G1 X154.5 Y150.462 E13.65561
G1 X154.49 Y151.18 E13.70576
G1 X154.44 Y151.894 E13.75575
G1 X154.311 Y152.597 E13.80567
G1 X154.104 Y153.282 E13.85566
G1 X153.822 Y153.939 E13.90559
G1 X153.469 Y154.561 E13.95555
G1 X153.048 Y155.139 E14.00549
G1 X152.565 Y155.667 E14.05547
G1 X152.027 Y156.138 E14.10542
G1 X151.439 Y156.545 E14.15536
G1 X150.809 Y156.885 E14.20537
G1 X150.146 Y157.152 E14.25529
G1 X149.457 Y157.344 E14.30525
G1 X148.751 Y157.457 E14.35519
G1 X147.779 Y157.5 E14.42314
G1 X62.515 Y157.499 E20.37852
G1 X61.818 Y157.489 E20.4272
G1 X61.105 Y157.439 E20.47713
G1 X60.401 Y157.31 E20.52712
G1 X59.717 Y157.102 E20.57705
G1 X59.059 Y156.82 E20.62705
G1 X58.438 Y156.466 E20.67698
G1 X57.86 Y156.045 E20.72693
G1 X57.332 Y155.562 E20.77691
G1 X56.862 Y155.024 E20.8268
G1 X56.454 Y154.436 E20.87679
G1 X56.115 Y153.806 E20.92676
G1 X55.848 Y153.142 E20.97675
G1 X55.657 Y152.453 E21.02669
G1 X55.521 Y151.603 E21.08681
G1 X55.5 Y150.758 E21.14585
G1 X55.5 Y138.85 E21.97758
G1 X55.462 Y136.208 E22.16213
G1 X55.35 Y133.568 E22.34669
G1 X55.163 Y130.922 E22.53197
G1 X54.899 Y128.266 E22.71839
G1 X54.568 Y125.678 E22.90063
G1 X54.466 Y125.023 E22.94693
G1 X54.299 Y123.859 E23.02906
G1 X54.237 Y123.146 E23.07905
G1 X54.244 Y122.591 E23.11782
G1 X54.309 Y121.453 E23.19743
G1 X54.352 Y120.846 E23.23994
G1 X54.464 Y118.141 E23.42903
G1 X54.499 Y115.605 E23.60618
G1 X54.5 Y58.788 E27.57464
G1 X54.51 Y58.102 E27.62256
G1 X54.56 Y57.388 E27.67255
G1 X54.69 Y56.685 E27.72248
G1 X54.897 Y56 E27.77246
G1 X55.18 Y55.343 E27.82243
G1 X55.534 Y54.722 E27.87236
G1 X55.955 Y54.143 E27.92236
G1 X56.599 Y53.443 E27.98879
M204 S3000
M205 X10 Y10
G0 F3000 X57.013 Y53.824
M204 S1800
M205 X8 Y8
G1 F2400 X57.665 Y53.265 E28.04878
G1 X58.231 Y52.883 E28.09647
G1 X58.839 Y52.57 E28.14424
G1 X59.479 Y52.331 E28.19195
G1 X60.142 Y52.167 E28.23966
G1 X61.099 Y52.071 E28.30684
G1 X61.762 Y52.06 E28.35315
G1 X148.176 Y52.061 E34.38885
G1 X148.877 Y52.071 E34.43781
G1 X149.559 Y52.12 E34.48557
G1 X150.23 Y52.249 E34.5333
G1 X150.881 Y52.456 E34.58101
G1 X151.504 Y52.737 E34.62875
G1 X152.089 Y53.089 E34.67643
G1 X152.63 Y53.506 E34.72414
G1 X153.198 Y54.053 E34.77922
G1 X153.655 Y54.561 E34.82695
G1 X154.049 Y55.119 E34.87466
G1 X154.375 Y55.719 E34.92235
G1 X154.629 Y56.353 E34.97006
G1 X154.807 Y57.013 E35.0178
G1 X154.924 Y57.805 E35.07372
G1 X154.94 Y58.751 E35.1398
G1 X154.94 Y115.503 E39.10372
G1 X154.977 Y118.134 E39.2875
G1 X155.136 Y121.573 E39.52796
G1 X155.2 Y122.567 E39.59753
G1 X155.204 Y123.25 E39.64524
G1 X155.15 Y123.792 E39.68328
G1 X154.778 Y126.318 E39.86162
G1 X154.465 Y128.926 E40.04508
G1 X154.22 Y131.618 E40.23389
G1 X154.053 Y134.26 E40.41879
G1 X153.962 Y136.896 E40.60301
G1 X153.941 Y138.906 E40.74341
G1 X153.94 Y150.454 E41.55
G1 X153.93 Y151.172 E41.60015
G1 X153.881 Y151.854 E41.64791
G1 X153.752 Y152.525 E41.69564
G1 X153.546 Y153.176 E41.74333
G1 X153.265 Y153.799 E41.79106
G1 X152.914 Y154.385 E41.83877
G1 X152.496 Y154.925 E41.88647
G1 X152.018 Y155.414 E41.93423
G1 X151.486 Y155.843 E41.98197
G1 X150.908 Y156.207 E42.02968
G1 X150.291 Y156.501 E42.07741
G1 X149.644 Y156.721 E42.12515
G1 X148.976 Y156.864 E42.17286
G1 X148.138 Y156.94 E42.23163
G1 X62.523 Y156.939 E48.21152
G1 X61.826 Y156.929 E48.26021
G1 X61.145 Y156.88 E48.3079
G1 X60.474 Y156.751 E48.35562
G1 X59.823 Y156.544 E48.40334
G1 X59.2 Y156.263 E48.45107
G1 X58.614 Y155.911 E48.49882
G1 X58.074 Y155.493 E48.54651
G1 X57.586 Y155.015 E48.59423
G1 X57.157 Y154.483 E48.64196
G1 X56.793 Y153.905 E48.68967
G1 X56.499 Y153.288 E48.73741
G1 X56.28 Y152.641 E48.78512
G1 X56.137 Y151.973 E48.83283
G1 X56.073 Y151.266 E48.88241
G1 X56.06 Y150.758 E48.91791
G1 X56.06 Y138.85 E49.74964
G1 X56.023 Y136.211 E49.93398
G1 X55.908 Y133.504 E50.12322
G1 X55.723 Y130.9 E50.30556
G1 X55.456 Y128.209 E50.49444
G1 X55.12 Y125.584 E50.67928
G1 X55.02 Y124.943 E50.7246
G1 X54.853 Y123.779 E50.80673
G1 X54.784 Y122.956 E50.86442
G1 X54.867 Y121.492 E50.96684
G1 X54.913 Y120.838 E51.01263
G1 X55.023 Y118.171 E51.19907
G1 X55.059 Y115.605 E51.37831
G1 X55.06 Y58.796 E55.34621
G1 X55.07 Y58.11 E55.39413
G1 X55.12 Y57.428 E55.44189
G1 X55.249 Y56.758 E55.48955
G1 X55.455 Y56.106 E55.5373
G1 X55.737 Y55.484 E55.58501
G1 X56.089 Y54.898 E55.63275
G1 X56.507 Y54.358 E55.68045
G1 X57.013 Y53.824 E55.73183
M204 S3000
M205 X10 Y10
G0 F3000 X57.352 Y54.269
M204 S1800
M205 X8 Y8
G1 F2400 X58.029 Y53.691 E55.79401
G1 X58.572 Y53.333 E55.83943
G1 X59.154 Y53.044 E55.88482
G1 X59.767 Y52.829 E55.93019
G1 X60.401 Y52.691 E55.97551
G1 X61.109 Y52.631 E56.02514
G1 X61.762 Y52.62 E56.07076
G1 X148.168 Y52.621 E62.1059
G1 X148.869 Y52.631 E62.15486
G1 X149.517 Y52.68 E62.20025
G1 X150.154 Y52.808 E62.24563
G1 X150.77 Y53.014 E62.291
G1 X151.356 Y53.293 E62.33633
G1 X151.904 Y53.643 E62.38175
G1 X152.651 Y54.28 E62.45032
G1 X153.237 Y54.935 E62.51171
G1 X153.607 Y55.469 E62.55708
G1 X153.909 Y56.044 E62.60245
G1 X154.137 Y56.653 E62.64787
G1 X154.289 Y57.284 E62.6932
G1 X154.369 Y58.107 E62.75095
G1 X154.38 Y58.751 E62.79594
G1 X154.38 Y115.503 E66.75986
G1 X154.418 Y118.168 E66.94602
G1 X154.576 Y121.597 E67.18577
G1 X154.641 Y122.603 E67.25619
G1 X154.643 Y123.389 E67.31109
G1 X154.222 Y126.249 E67.513
G1 X153.907 Y128.877 E67.69787
G1 X153.665 Y131.533 E67.88415
G1 X153.494 Y134.238 E68.07346
G1 X153.401 Y136.912 E68.26034
G1 X153.381 Y138.9 E68.3992
G1 X153.38 Y150.447 E69.20572
G1 X153.37 Y151.165 E69.25587
G1 X153.322 Y151.812 E69.30119
G1 X153.193 Y152.449 E69.34658
G1 X152.988 Y153.065 E69.39193
G1 X152.708 Y153.652 E69.43735
G1 X152.359 Y154.199 E69.48267
G1 X151.945 Y154.7 E69.52807
G1 X151.473 Y155.146 E69.57342
G1 X150.949 Y155.531 E69.61884
G1 X150.382 Y155.848 E69.66421
G1 X149.781 Y156.093 E69.70954
G1 X149.154 Y156.263 E69.75492
G1 X148.148 Y156.38 E69.82566
G1 X62.531 Y156.379 E75.80569
G1 X61.834 Y156.369 E75.85438
G1 X61.187 Y156.32 E75.8997
G1 X60.55 Y156.192 E75.94508
G1 X59.934 Y155.986 E75.99044
G1 X59.347 Y155.706 E76.03587
G1 X58.8 Y155.357 E76.08119
G1 X58.299 Y154.942 E76.12663
G1 X57.854 Y154.47 E76.17194
G1 X57.469 Y153.946 E76.21735
G1 X57.152 Y153.379 E76.26273
G1 X56.907 Y152.778 E76.30806
G1 X56.738 Y152.151 E76.35341
G1 X56.62 Y151.147 E76.42402
G1 X56.62 Y138.85 E77.28292
G1 X56.582 Y136.179 E77.4695
G1 X56.469 Y133.51 E77.65609
G1 X56.277 Y130.807 E77.84536
G1 X56.014 Y128.153 E78.03164
G1 X55.674 Y125.496 E78.21873
G1 X55.575 Y124.864 E78.26341
G1 X55.408 Y123.7 E78.34555
G1 X55.346 Y122.939 E78.39888
G1 X55.426 Y121.531 E78.49738
G1 X55.473 Y120.864 E78.54408
G1 X55.583 Y118.203 E78.7301
G1 X55.619 Y115.605 E78.91158
G1 X55.62 Y58.804 E82.87892
G1 X55.63 Y58.118 E82.92684
G1 X55.679 Y57.47 E82.97223
G1 X55.808 Y56.834 E83.01755
G1 X56.013 Y56.217 E83.06297
G1 X56.293 Y55.631 E83.10833
G1 X56.643 Y55.084 E83.15369
G1 X57.352 Y54.269 E83.22914
M204 S3000
M205 X10 Y10
G1 F2400 E77.22914
G0 F3000 X61.039 Y58.26
M204 S1800
M205 X8 Y8
;TYPE:SUPPORT
G1 F2400 E83.22914
G1 F2520 X61.039 Y122.648 E86.44147
G1 X60.962 Y122.809 E86.45037
G1 X64.91 Y122.81 E86.64734
G1 X64.91 Y62.293 E89.66654
G1 X65.214 Y61.968 E89.68874
G1 X65.321 Y61.912 E89.69477
G1 X144.708 Y61.91 E93.6554
G1 X145.09 Y62.292 E93.68235
G1 X145.09 Y122.81 E96.70161
G1 X149.041 Y122.81 E96.89873
G1 X148.96 Y122.644 E96.90794
G1 X148.96 Y58.259 E100.12012
G1 X148.741 Y58.04 E100.13557
G1 X61.259 Y58.04 E104.50007
G1 X61.039 Y58.26 E104.51559
M204 S3000
M205 X10 Y10
G0 F3000 X64 Y58.18
M204 S1800
M205 X8 Y8
G1 F1800 X64 Y122.67 E109.01998
M204 S3000
M205 X10 Y10
G0 F3000 X64.769 Y120.533
M204 S1800
M205 X8 Y8
G1 F1800 X61.179 Y118.46 E109.30953
M204 S3000
M205 X10 Y10
G0 F3000 X61.18 Y121.716
M204 S1800
M205 X8 Y8
G1 F1800 X64.769 Y119.644 E109.59898
M204 S3000
M205 X10 Y10
G1 F2400 E103.59898
G0 F3000 X61.18 Y112.479
M204 S1800
M205 X8 Y8
G1 F2400 E109.59898
G1 F1800 X64.769 Y110.406 E109.88847
M204 S3000
M205 X10 Y10
G0 F3000 X64.77 Y111.296
M204 S1800
M205 X8 Y8
G1 F1800 X61.179 Y109.222 E110.17812
M204 S3000
M205 X10 Y10
G1 F2400 E104.17812
G0 F3000 X61.18 Y103.241
M204 S1800
M205 X8 Y8
G1 F2400 E110.17812
G1 F1800 X64.769 Y101.169 E110.46757
M204 S3000
M205 X10 Y10
G0 F3000 X64.77 Y102.058
M204 S1800
M205 X8 Y8
G1 F1800 X61.178 Y99.984 E110.75728
M204 S3000
M205 X10 Y10
G1 F2400 E104.75728
G0 F3000 X61.179 Y94.004
M204 S1800
M205 X8 Y8
G1 F2400 E110.75728
G1 F1800 X64.769 Y91.931 E111.04683
M204 S3000
M205 X10 Y10
G0 F3000 X64.77 Y92.82
M204 S1800
M205 X8 Y8
G1 F1800 X61.178 Y90.747 E111.3365
M204 S3000
M205 X10 Y10
G1 F2400 E105.3365
G0 F3000 X61.179 Y84.766
M204 S1800
M205 X8 Y8
G1 F2400 E111.3365
G1 F1800 X64.768 Y82.694 E111.62595
M204 S3000
M205 X10 Y10
G0 F3000 X64.77 Y83.583
M204 S1800
M205 X8 Y8
G1 F1800 X61.178 Y81.509 E111.91566
M204 S3000
M205 X10 Y10
G1 F2400 E105.91566
G0 F3000 X61.179 Y75.529
M204 S1800
M205 X8 Y8
G1 F2400 E111.91566
G1 F1800 X64.768 Y73.456 E112.20515
M204 S3000
M205 X10 Y10
G0 F3000 X64.769 Y74.345
M204 S1800
M205 X8 Y8
G1 F1800 X61.178 Y72.271 E112.49479
M204 S3000
M205 X10 Y10
G1 F2400 E106.49479
G0 F3000 X61.179 Y66.291
M204 S1800
M205 X8 Y8
G1 F2400 E112.49479
G1 F1800 X64.768 Y64.219 E112.78425
M204 S3000
M205 X10 Y10
G0 F3000 X64.769 Y65.107
M204 S1800
M205 X8 Y8
G1 F1800 X61.178 Y63.034 E113.07386
M204 S3000
M205 X10 Y10
G1 F2400 E107.07386
G0 F3000 X69.002 Y61.775
M204 S1800
M205 X8 Y8
G1 F2400 E113.07386
G1 F1800 X75.23 Y58.179 E113.57616
M204 S3000
M205 X10 Y10
G0 F3000 X72 Y58.18
M204 S1800
M205 X8 Y8
G1 F1800 X72 Y61.775 E113.82726
M204 S3000
M205 X10 Y10
G0 F3000 X74.995 Y61.773
M204 S1800
M205 X8 Y8
G1 F1800 X68.769 Y58.179 E114.32938
M204 S3000
M205 X10 Y10
G1 F2400 E108.32938
G0 F3000 X80 Y58.18
M204 S1800
M205 X8 Y8
G1 F2400 E114.32938
G1 F1800 X80 Y61.775 E114.58048
M204 S3000
M205 X10 Y10
G1 F2400 E108.58048
G0 F3000 X85.004 Y61.773
M204 S1800
M205 X8 Y8
G1 F2400 E114.58048
G1 F1800 X91.231 Y58.178 E115.08269
M204 S3000
M205 X10 Y10
G0 F3000 X88 Y58.18
M204 S1800
M205 X8 Y8
G1 F1800 X88 Y61.774 E115.33371
M204 S3000
M205 X10 Y10
G0 F3000 X90.993 Y61.772
M204 S1800
M205 X8 Y8
G1 F1800 X84.77 Y58.179 E115.83561
M204 S3000
M205 X10 Y10
G1 F2400 E109.83561
G0 F3000 X96 Y58.18
M204 S1800
M205 X8 Y8
G1 F2400 E115.83561
G1 F1800 X96 Y61.774 E116.08664
M204 S3000
M205 X10 Y10
G1 F2400 E110.08664
G0 F3000 X101.006 Y61.772
M204 S1800
M205 X8 Y8
G1 F2400 E116.08664
G1 F1800 X107.23 Y58.179 E116.5886
M204 S3000
M205 X10 Y10
G0 F3000 X104 Y58.18
M204 S1800
M205 X8 Y8
G1 F1800 X104 Y61.773 E116.83956
M204 S3000
M205 X10 Y10
G0 F3000 X106.992 Y61.772
M204 S1800
M205 X8 Y8
G1 F1800 X100.77 Y58.18 E117.34136
M204 S3000
M205 X10 Y10
G1 F2400 E111.34136
G0 F3000 X112 Y58.18
M204 S1800
M205 X8 Y8
G1 F2400 E117.34136
G1 F1800 X112 Y61.773 E117.59232
M204 S3000
M205 X10 Y10
G1 F2400 E111.59232
G0 F3000 X117.008 Y61.771
M204 S1800
M205 X8 Y8
G1 F2400 E117.59232
G1 F1800 X123.23 Y58.179 E118.09413
M204 S3000
M205 X10 Y10
G0 F3000 X120 Y58.18
M204 S1800
M205 X8 Y8
G1 F1800 X120 Y61.772 E118.34501
M204 S3000
M205 X10 Y10
G0 F3000 X122.99 Y61.77
M204 S1800
M205 X8 Y8
G1 F1800 X116.77 Y58.179 E118.84666
M204 S3000
M205 X10 Y10
G1 F2400 E112.84666
G0 F3000 X128 Y58.18
M204 S1800
M205 X8 Y8
G1 F2400 E118.84666
G1 F1800 X128 Y61.772 E119.09755
M204 S3000
M205 X10 Y10
G1 F2400 E113.09755
G0 F3000 X133.01 Y61.77
M204 S1800
M205 X8 Y8
G1 F2400 E119.09755
G1 F1800 X139.23 Y58.179 E119.5992
M204 S3000
M205 X10 Y10
G0 F3000 X136 Y58.18
M204 S1800
M205 X8 Y8
G1 F1800 X136 Y61.771 E119.85002
M204 S3000
M205 X10 Y10
G0 F3000 X138.988 Y61.77
M204 S1800
M205 X8 Y8
G1 F1800 X132.77 Y58.18 E120.35151
M204 S3000
M205 X10 Y10
G1 F2400 E114.35151
G0 F3000 X144 Y58.18
M204 S1800
M205 X8 Y8
G1 F2400 E120.35151
G1 F1800 X144 Y61.771 E120.60233
M204 S3000
M205 X10 Y10
G0 F3000 X145.229 Y63.953
M204 S1800
M205 X8 Y8
G1 F1800 X148.819 Y61.88 E120.89188
M204 S3000
M205 X10 Y10
G1 F2400 E114.89188
G0 F3000 X145.229 Y65.373
M204 S1800
M205 X8 Y8
G1 F2400 E120.89188
G1 F1800 X148.819 Y67.445 E121.18139
M204 S3000
M205 X10 Y10
G1 F2400 E115.18139
G0 F3000 X148.819 Y71.118
M204 S1800
M205 X8 Y8
G1 F2400 E121.18139
G1 F1800 X145.229 Y73.19 E121.47091
M204 S3000
M205 X10 Y10
G0 F3000 X145.228 Y74.61
M204 S1800
M205 X8 Y8
G1 F1800 X148.819 Y76.683 E121.76052
M204 S3000
M205 X10 Y10
G1 F2400 E115.76052
G0 F3000 X148.819 Y80.356
M204 S1800
M205 X8 Y8
G1 F2400 E121.76052
G1 F1800 X145.229 Y82.428 E122.05003
M204 S3000
M205 X10 Y10
G0 F3000 X145.228 Y83.848
M204 S1800
M205 X8 Y8
G1 F1800 X148.819 Y85.921 E122.33964
M204 S3000
M205 X10 Y10
G1 F2400 E116.33964
G0 F3000 X148.818 Y89.593
M204 S1800
M205 X8 Y8
G1 F2400 E122.33964
G1 F1800 X145.229 Y91.666 E122.62913
M204 S3000
M205 X10 Y10
G0 F3000 X145.229 Y93.085
M204 S1800
M205 X8 Y8
G1 F1800 X148.819 Y95.158 E122.91868
M204 S3000
M205 X10 Y10
G1 F2400 E116.91868
G0 F3000 X148.818 Y98.831
M204 S1800
M205 X8 Y8
G1 F2400 E122.91868
G1 F1800 X145.229 Y100.903 E123.20814
M204 S3000
M205 X10 Y10
G0 F3000 X145.229 Y102.323
M204 S1800
M205 X8 Y8
G1 F1800 X148.819 Y104.396 E123.49769
M204 S3000
M205 X10 Y10
G1 F2400 E117.49769
G0 F3000 X148.818 Y108.069
M204 S1800
M205 X8 Y8
G1 F2400 E123.49769
G1 F1800 X145.229 Y110.141 E123.78714
M204 S3000
M205 X10 Y10
G0 F3000 X145.228 Y111.56
M204 S1800
M205 X8 Y8
G1 F1800 X148.82 Y113.634 E124.07685
M204 S3000
M205 X10 Y10
G1 F2400 E118.07685
G0 F3000 X148.818 Y117.306
M204 S1800
M205 X8 Y8
G1 F2400 E124.07685
G1 F1800 X145.229 Y119.378 E124.3663
M204 S3000
M205 X10 Y10
G0 F3000 X145.228 Y120.798
M204 S1800
M205 X8 Y8
G1 F1800 X148.468 Y122.668 E124.62759
M204 S3000
M205 X10 Y10
G1 F2400 E118.62759
G1 F600 Z0.375
G0 F3000 X84.741 Y142.091 Z0.375
M204 S1800
M205 X8 Y8
G1 F600 Z0.3
G1 F2400 E124.62759
G1 F2520 X70.858 Y142.09 E125.32022
G1 X70.887 Y142.317 E125.33163
G1 X71.547 Y143.985 E125.42113
G1 X72.6 Y145.435 E125.51053
G1 X73.981 Y146.576 E125.59991
G1 X75.601 Y147.34 E125.68926
G1 X77.366 Y147.676 E125.7789
G1 X79.158 Y147.564 E125.86848
G1 X80.858 Y147.012 E125.95765
G1 X82.373 Y146.05 E126.04719
G1 X83.604 Y144.74 E126.13687
G1 X84.466 Y143.17 E126.22623
G1 X84.49 Y143.074 E126.23116
G1 X84.741 Y142.091 E126.28178
M204 S3000
M205 X10 Y10
