;FLAVOR:Marlin
;TIME:7555
;Filament used: 11.9815m
;Layer height: 0.3
;MINX:54.237
;MINY:51.499
;MINZ:0.3
;MAXX:155.765
;MAXY:157.5
;MAXZ:18.6
;Generated with Cura_SteamEngine 5.2.1
M140 S60
M105
M190 S60
M104 S200
M105
M109 S200
M82 ;absolute extrusion mode
G21 ;metric values
G90 ;absolute positioning
M82 ;set extruder to absolute mode
M107 ;start with the fan off
G28 X0 Y0 ;move X/Y to min endstops
G28 Z0 ;move Z to min endstops
G1 Z15.0 F100 ;move the platform down 15mm
G92 E0 ;zero the extruded length
G1 F200 E3 ;extrude 3mm of feed stock
G92 E0 ;zero the extruded length again
G1 F100
G0 Y20 F100
M117 Printing...
G5
G92 E0
G92 E0
G1 F2400 E-6
;LAYER_COUNT:62
;LAYER:0
M107
M204 S3000
M205 X10 Y10
G1 F600 Z0.375
G0 F3000 X56.438 Y53.328 Z0.375
M204 S1800
M205 X8 Y8
;TYPE:SKIRT
G1 F600 Z0.3
G1 F2400 E0
G1 X56.977 Y52.858 E0.04995
G1 X57.565 Y52.451 E0.0999
G1 X58.195 Y52.112 E0.14987
G1 X58.859 Y51.845 E0.19985
G1 X59.548 Y51.654 E0.24979
G1 X60.4 Y51.519 E0.31004
G1 X61.229 Y51.499 E0.36796
G1 X148.485 Y51.501 E6.46247
G1 X149.183 Y51.511 E6.51123
G1 X149.896 Y51.561 E6.56115
G1 X150.6 Y51.69 E6.61114
G1 X151.284 Y51.898 E6.66108
G1 X151.941 Y52.18 E6.71101
G1 X152.563 Y52.534 E6.761
G1 X153.141 Y52.955 E6.81095
G1 X153.669 Y53.438 E6.86093
G1 X154.139 Y53.976 E6.91083
G1 X154.547 Y54.564 E6.96081
G1 X154.886 Y55.194 E7.01078
G1 X155.153 Y55.857 E7.06071
G1 X155.344 Y56.547 E7.11071
G1 X155.48 Y57.397 E7.17084
G1 X155.5 Y58.23 E7.22903
G1 X155.5 Y115.503 E11.22934
G1 X155.537 Y118.133 E11.41305
G1 X155.694 Y121.525 E11.65023
G1 X155.759 Y122.531 E11.72064
G1 X155.765 Y123.246 E11.77058
G1 X155.704 Y123.874 E11.81465
G1 X155.333 Y126.393 E11.99249
G1 X155.024 Y128.974 E12.17405
G1 X154.778 Y131.669 E12.36307
G1 X154.613 Y134.278 E12.54566
G1 X154.521 Y136.922 E12.73045
G1 X154.501 Y138.912 E12.86945
G1 X154.5 Y150.462 E13.67617
G1 X154.49 Y151.18 E13.72633
G1 X154.44 Y151.894 E13.77632
G1 X154.311 Y152.597 E13.82624
G1 X154.104 Y153.282 E13.87622
G1 X153.822 Y153.939 E13.92616
G1 X153.469 Y154.561 E13.97612
G1 X153.048 Y155.139 E14.02606
G1 X152.565 Y155.667 E14.07604
G1 X152.027 Y156.138 E14.12598
G1 X151.439 Y156.545 E14.17593
G1 X150.809 Y156.885 E14.22594
G1 X150.146 Y157.152 E14.27586
G1 X149.457 Y157.344 E14.32582
G1 X148.751 Y157.457 E14.37575
G1 X147.779 Y157.5 E14.44371
G1 X62.515 Y157.499 E20.39909
G1 X61.818 Y157.489 E20.44777
G1 X61.105 Y157.439 E20.4977
G1 X60.401 Y157.31 E20.54769
G1 X59.717 Y157.102 E20.59762
G1 X59.059 Y156.82 E20.64762
G1 X58.438 Y156.466 E20.69755
G1 X57.86 Y156.045 E20.74749
G1 X57.332 Y155.562 E20.79748
G1 X56.862 Y155.024 E20.84737
G1 X56.454 Y154.436 E20.89736
G1 X56.115 Y153.806 E20.94733
G1 X55.848 Y153.142 E20.99732
G1 X55.657 Y152.453 E21.04726
G1 X55.521 Y151.603 E21.10738
G1 X55.5 Y150.758 E21.16642
G1 X55.5 Y138.85 E21.99815
G1 X55.462 Y136.208 E22.1827
G1 X55.35 Y133.568 E22.36726
G1 X55.163 Y130.922 E22.55254
G1 X54.899 Y128.266 E22.73896
G1 X54.568 Y125.678 E22.9212
G1 X54.466 Y125.023 E22.9675
G1 X54.299 Y123.859 E23.04963
G1 X54.237 Y123.146 E23.09962
G1 X54.244 Y122.591 E23.13839
G1 X54.309 Y121.453 E23.218
G1 X54.352 Y120.846 E23.2605
G1 X54.464 Y118.141 E23.4496
G1 X54.499 Y115.605 E23.62675
G1 X54.5 Y58.495 E27.61567
G1 X54.51 Y57.814 E27.66324
G1 X54.56 Y57.101 E27.71316
G1 X54.69 Y56.397 E27.76317
G1 X54.897 Y55.713 E27.81308
G1 X55.18 Y55.056 E27.86305
G1 X55.534 Y54.434 E27.91303
G1 X55.955 Y53.856 E27.96298
G1 X56.438 Y53.328 E28.01296
M204 S3000
M205 X10 Y10
G0 F3000 X56.985 Y53.582
M204 S1800
M205 X8 Y8
G1 F2400 X57.517 Y53.154 E28.06065
G1 X58.096 Y52.79 E28.10842
G1 X58.713 Y52.497 E28.15613
G1 X59.36 Y52.277 E28.20386
G1 X60.028 Y52.135 E28.25156
G1 X60.866 Y52.059 E28.31033
G1 X148.477 Y52.061 E34.42963
G1 X149.175 Y52.071 E34.47839
G1 X149.856 Y52.12 E34.52608
G1 X150.527 Y52.249 E34.5738
G1 X151.178 Y52.456 E34.62152
G1 X151.801 Y52.737 E34.66925
G1 X152.387 Y53.089 E34.717
G1 X152.927 Y53.507 E34.76469
G1 X153.415 Y53.985 E34.81241
G1 X153.844 Y54.517 E34.86014
G1 X154.208 Y55.095 E34.90785
G1 X154.502 Y55.712 E34.95559
G1 X154.721 Y56.359 E35.0033
G1 X154.864 Y57.027 E35.05101
G1 X154.94 Y57.868 E35.10999
G1 X154.94 Y115.503 E39.13558
G1 X154.977 Y118.134 E39.31937
G1 X155.136 Y121.573 E39.55982
G1 X155.2 Y122.567 E39.6294
G1 X155.204 Y123.25 E39.6771
G1 X155.15 Y123.792 E39.71515
G1 X154.778 Y126.318 E39.89348
G1 X154.465 Y128.926 E40.07695
G1 X154.22 Y131.618 E40.26575
G1 X154.053 Y134.26 E40.45065
G1 X153.962 Y136.896 E40.63488
G1 X153.941 Y138.906 E40.77528
G1 X153.94 Y150.454 E41.58186
G1 X153.93 Y151.172 E41.63201
G1 X153.881 Y151.854 E41.67977
G1 X153.752 Y152.525 E41.7275
G1 X153.546 Y153.176 E41.77519
G1 X153.265 Y153.799 E41.82293
G1 X152.914 Y154.385 E41.87064
G1 X152.496 Y154.925 E41.91833
G1 X152.018 Y155.414 E41.96609
G1 X151.486 Y155.843 E42.01383
G1 X150.908 Y156.207 E42.06154
G1 X150.291 Y156.501 E42.10928
G1 X149.644 Y156.721 E42.15701
G1 X148.976 Y156.864 E42.20472
G1 X148.138 Y156.94 E42.26349
G1 X62.523 Y156.939 E48.24338
G1 X61.826 Y156.929 E48.29207
G1 X61.145 Y156.88 E48.33976
G1 X60.474 Y156.751 E48.38748
G1 X59.823 Y156.544 E48.4352
G1 X59.2 Y156.263 E48.48293
G1 X58.614 Y155.911 E48.53068
G1 X58.074 Y155.493 E48.57838
G1 X57.586 Y155.015 E48.62609
G1 X57.157 Y154.483 E48.67382
G1 X56.793 Y153.905 E48.72153
G1 X56.499 Y153.288 E48.76927
G1 X56.28 Y152.641 E48.81698
G1 X56.137 Y151.973 E48.86469
G1 X56.073 Y151.266 E48.91428
G1 X56.06 Y150.758 E48.94977
G1 X56.06 Y138.85 E49.7815
G1 X56.023 Y136.211 E49.96584
G1 X55.908 Y133.504 E50.15509
G1 X55.723 Y130.9 E50.33743
G1 X55.456 Y128.209 E50.5263
G1 X55.12 Y125.584 E50.71115
G1 X55.02 Y124.943 E50.75646
G1 X54.853 Y123.779 E50.83859
G1 X54.784 Y122.956 E50.89628
G1 X54.867 Y121.492 E50.9987
G1 X54.913 Y120.838 E51.04449
G1 X55.023 Y118.171 E51.23093
G1 X55.059 Y115.605 E51.41017
G1 X55.06 Y58.503 E55.39853
G1 X55.07 Y57.822 E55.4461
G1 X55.12 Y57.141 E55.4938
G1 X55.249 Y56.47 E55.54152
G1 X55.456 Y55.819 E55.58924
G1 X55.737 Y55.196 E55.63697
G1 X56.089 Y54.611 E55.68466
G1 X56.507 Y54.07 E55.73241
G1 X56.985 Y53.582 E55.78012
M204 S3000
M205 X10 Y10
G0 F3000 X57.53 Y53.85
M204 S1800
M205 X8 Y8
G1 F2400 X58.054 Y53.466 E55.8255
G1 X58.621 Y53.149 E55.87087
G1 X59.223 Y52.904 E55.91627
G1 X59.85 Y52.735 E55.96162
G1 X60.857 Y52.619 E56.03242
G1 X148.469 Y52.621 E62.1518
G1 X149.167 Y52.631 E62.20055
G1 X149.814 Y52.68 E62.24587
G1 X150.451 Y52.808 E62.29125
G1 X151.067 Y53.014 E62.33662
G1 X151.654 Y53.294 E62.38205
G1 X152.201 Y53.643 E62.42737
G1 X152.702 Y54.057 E62.47276
G1 X153.147 Y54.53 E62.51812
G1 X153.532 Y55.054 E62.56354
G1 X153.849 Y55.621 E62.60891
G1 X154.094 Y56.222 E62.65424
G1 X154.263 Y56.849 E62.6996
G1 X154.38 Y57.857 E62.77048
G1 X154.38 Y115.503 E66.79683
G1 X154.418 Y118.168 E66.98299
G1 X154.576 Y121.596 E67.22268
G1 X154.641 Y122.603 E67.29316
G1 X154.643 Y123.389 E67.34806
G1 X154.222 Y126.249 E67.54997
G1 X153.907 Y128.877 E67.73484
G1 X153.665 Y131.533 E67.92112
G1 X153.494 Y134.238 E68.11044
G1 X153.401 Y136.912 E68.29732
G1 X153.381 Y138.9 E68.43618
G1 X153.38 Y150.447 E69.24269
G1 X153.37 Y151.165 E69.29285
G1 X153.322 Y151.812 E69.33816
G1 X153.193 Y152.449 E69.38356
G1 X152.988 Y153.065 E69.4289
G1 X152.708 Y153.652 E69.47433
G1 X152.359 Y154.199 E69.51965
G1 X151.945 Y154.7 E69.56504
G1 X151.473 Y155.146 E69.6104
G1 X150.949 Y155.531 E69.65582
G1 X150.382 Y155.848 E69.70119
G1 X149.781 Y156.093 E69.74652
G1 X149.154 Y156.263 E69.7919
G1 X148.148 Y156.38 E69.86263
G1 X62.531 Y156.379 E75.84266
G1 X61.834 Y156.369 E75.89135
G1 X61.187 Y156.32 E75.93667
G1 X60.55 Y156.192 E75.98205
G1 X59.934 Y155.986 E76.02742
G1 X59.347 Y155.706 E76.07285
G1 X58.8 Y155.357 E76.11817
G1 X58.299 Y154.942 E76.16361
G1 X57.854 Y154.47 E76.20891
G1 X57.469 Y153.946 E76.25433
G1 X57.152 Y153.379 E76.2997
G1 X56.907 Y152.778 E76.34503
G1 X56.738 Y152.151 E76.39039
G1 X56.62 Y151.147 E76.461
G1 X56.62 Y138.85 E77.3199
G1 X56.582 Y136.179 E77.50648
G1 X56.469 Y133.51 E77.69306
G1 X56.277 Y130.807 E77.88233
G1 X56.014 Y128.153 E78.06861
G1 X55.674 Y125.496 E78.25571
G1 X55.575 Y124.864 E78.30039
G1 X55.408 Y123.7 E78.38252
G1 X55.346 Y122.939 E78.43585
G1 X55.426 Y121.531 E78.53435
G1 X55.473 Y120.864 E78.58106
G1 X55.583 Y118.203 E78.76708
G1 X55.619 Y115.605 E78.94856
G1 X55.62 Y58.511 E82.93636
G1 X55.63 Y57.83 E82.98393
G1 X55.679 Y57.183 E83.02925
G1 X55.808 Y56.546 E83.07465
G1 X56.014 Y55.93 E83.12001
G1 X56.294 Y55.344 E83.16537
G1 X56.643 Y54.796 E83.21075
G1 X57.058 Y54.296 E83.25614
G1 X57.53 Y53.85 E83.3015
M204 S3000
M205 X10 Y10
G1 F2400 E77.3015
G0 F3000 X61.04 Y58.04
M204 S1800
M205 X8 Y8
;TYPE:SUPPORT
G1 F2400 E83.3015
G1 F2520 X61.039 Y122.648 E86.5248
G1 X60.962 Y122.809 E86.53371
G1 X66.91 Y122.81 E86.83045
G1 X66.91 Y64.317 E89.74868
G1 X67.253 Y63.938 E89.77418
G1 X67.321 Y63.912 E89.77781
G1 X142.683 Y63.91 E93.53764
G1 X143.032 Y64.214 E93.56073
G1 X143.09 Y64.313 E93.56646
G1 X143.09 Y122.81 E96.48488
G1 X149.041 Y122.81 E96.78178
G1 X148.96 Y122.644 E96.79099
G1 X148.96 Y58.04 E100.0141
G1 X61.04 Y58.04 E104.40045
M204 S3000
M205 X10 Y10
G0 F3000 X64 Y58.18
M204 S1800
M205 X8 Y8
G1 F1800 X64 Y122.67 E108.90483
M204 S3000
M205 X10 Y10
G0 F3000 X66.77 Y121.688
M204 S1800
M205 X8 Y8
G1 F1800 X61.179 Y118.46 E109.35576
M204 S3000
M205 X10 Y10
G0 F3000 X61.18 Y121.716
M204 S1800
M205 X8 Y8
G1 F1800 X66.769 Y118.489 E109.80653
M204 S3000
M205 X10 Y10
G1 F2400 E103.80653
G0 F3000 X66.77 Y112.45
M204 S1800
M205 X8 Y8
G1 F2400 E109.80653
G1 F1800 X61.179 Y109.222 E110.25745
M204 S3000
M205 X10 Y10
G0 F3000 X61.18 Y112.479
M204 S1800
M205 X8 Y8
G1 F1800 X66.769 Y109.252 E110.70822
M204 S3000
M205 X10 Y10
G1 F2400 E104.70822
G0 F3000 X66.77 Y103.212
M204 S1800
M205 X8 Y8
G1 F2400 E110.70822
G1 F1800 X61.178 Y99.984 E111.1592
M204 S3000
M205 X10 Y10
G0 F3000 X61.18 Y103.241
M204 S1800
M205 X8 Y8
G1 F1800 X66.769 Y100.014 E111.60997
M204 S3000
M205 X10 Y10
G1 F2400 E105.60997
G0 F3000 X66.77 Y93.975
M204 S1800
M205 X8 Y8
G1 F2400 E111.60997
G1 F1800 X61.179 Y90.747 E112.06089
M204 S3000
M205 X10 Y10
G0 F3000 X61.18 Y94.003
M204 S1800
M205 X8 Y8
G1 F1800 X66.769 Y90.776 E112.51166
M204 S3000
M205 X10 Y10
G1 F2400 E106.51166
G0 F3000 X66.77 Y84.738
M204 S1800
M205 X8 Y8
G1 F2400 E112.51166
G1 F1800 X61.179 Y81.51 E112.96259
M204 S3000
M205 X10 Y10
G0 F3000 X61.179 Y84.766
M204 S1800
M205 X8 Y8
G1 F1800 X66.769 Y81.539 E113.41342
M204 S3000
M205 X10 Y10
G1 F2400 E107.41342
G0 F3000 X66.77 Y75.5
M204 S1800
M205 X8 Y8
G1 F2400 E113.41342
G1 F1800 X61.179 Y72.272 E113.86434
M204 S3000
M205 X10 Y10
G0 F3000 X61.18 Y75.528
M204 S1800
M205 X8 Y8
G1 F1800 X66.769 Y72.301 E114.31511
M204 S3000
M205 X10 Y10
G1 F2400 E108.31511
G0 F3000 X66.771 Y66.263
M204 S1800
M205 X8 Y8
G1 F2400 E114.31511
G1 F1800 X61.179 Y63.034 E114.76613
M204 S3000
M205 X10 Y10
G0 F3000 X61.18 Y66.291
M204 S1800
M205 X8 Y8
G1 F1800 X75.229 Y58.179 E115.89923
M204 S3000
M205 X10 Y10
G0 F3000 X72 Y58.18
M204 S1800
M205 X8 Y8
G1 F1800 X72 Y63.77 E116.28967
M204 S3000
M205 X10 Y10
G1 F2400 E110.28967
G0 F3000 X78.45 Y63.768
M204 S1800
M205 X8 Y8
G1 F2400 E116.28967
G1 F1800 X68.77 Y58.179 E117.07039
M204 S3000
M205 X10 Y10
G1 F2400 E111.07039
G0 F3000 X80 Y58.18
M204 S1800
M205 X8 Y8
G1 F2400 E117.07039
G1 F1800 X80 Y63.77 E117.46083
M204 S3000
M205 X10 Y10
G0 F3000 X81.547 Y63.769
M204 S1800
M205 X8 Y8
G1 F1800 X91.229 Y58.179 E118.2417
M204 S3000
M205 X10 Y10
G0 F3000 X88 Y58.18
M204 S1800
M205 X8 Y8
G1 F1800 X88 Y63.77 E118.63214
M204 S3000
M205 X10 Y10
G1 F2400 E112.63214
G0 F3000 X94.451 Y63.769
M204 S1800
M205 X8 Y8
G1 F2400 E118.63214
G1 F1800 X84.77 Y58.179 E119.41295
M204 S3000
M205 X10 Y10
G1 F2400 E113.41295
G0 F3000 X96 Y58.18
M204 S1800
M205 X8 Y8
G1 F2400 E119.41295
G1 F1800 X96 Y63.77 E119.80339
M204 S3000
M205 X10 Y10
G0 F3000 X97.546 Y63.77
M204 S1800
M205 X8 Y8
G1 F1800 X107.229 Y58.179 E120.58436
M204 S3000
M205 X10 Y10
G0 F3000 X104 Y58.18
M204 S1800
M205 X8 Y8
G1 F1800 X104 Y63.77 E120.9748
M204 S3000
M205 X10 Y10
G1 F2400 E114.9748
G0 F3000 X110.452 Y63.769
M204 S1800
M205 X8 Y8
G1 F2400 E120.9748
G1 F1800 X100.77 Y58.18 E121.75563
M204 S3000
M205 X10 Y10
G1 F2400 E115.75563
G0 F3000 X112 Y58.18
M204 S1800
M205 X8 Y8
G1 F2400 E121.75563
G1 F1800 X112 Y63.77 E122.14607
M204 S3000
M205 X10 Y10
G0 F3000 X113.547 Y63.769
M204 S1800
M205 X8 Y8
G1 F1800 X123.229 Y58.179 E122.92695
M204 S3000
M205 X10 Y10
G0 F3000 X120 Y58.18
M204 S1800
M205 X8 Y8
G1 F1800 X120 Y63.77 E123.31739
M204 S3000
M205 X10 Y10
G1 F2400 E117.31739
G0 F3000 X126.451 Y63.769
M204 S1800
M205 X8 Y8
G1 F2400 E123.31739
G1 F1800 X116.771 Y58.18 E124.0981
M204 S3000
M205 X10 Y10
G1 F2400 E118.0981
G0 F3000 X128 Y58.18
M204 S1800
M205 X8 Y8
G1 F2400 E124.0981
G1 F1800 X128 Y63.77 E124.48854
M204 S3000
M205 X10 Y10
G0 F3000 X129.547 Y63.77
M204 S1800
M205 X8 Y8
G1 F1800 X139.229 Y58.18 E125.26941
M204 S3000
M205 X10 Y10
G0 F3000 X136 Y58.18
M204 S1800
M205 X8 Y8
G1 F1800 X136 Y63.77 E125.65986
M204 S3000
M205 X10 Y10
G1 F2400 E119.65986
G0 F3000 X142.452 Y63.769
M204 S1800
M205 X8 Y8
G1 F2400 E125.65986
G1 F1800 X132.77 Y58.18 E126.44069
M204 S3000
M205 X10 Y10
G1 F2400 E120.44069
G0 F3000 X144 Y58.18
M204 S1800
M205 X8 Y8
G1 F2400 E126.44069
G1 F1800 X144 Y122.67 E130.94508
M204 S3000
M205 X10 Y10
G0 F3000 X143.229 Y120.533
M204 S1800
M205 X8 Y8
G1 F1800 X148.818 Y117.306 E131.39585
M204 S3000
M205 X10 Y10
G1 F2400 E125.39585
G0 F3000 X148.82 Y113.634
M204 S1800
M205 X8 Y8
G1 F2400 E131.39585
G1 F1800 X143.228 Y110.406 E131.84683
M204 S3000
M205 X10 Y10
G0 F3000 X143.229 Y111.296
M204 S1800
M205 X8 Y8
G1 F1800 X148.818 Y108.069 E132.2976
M204 S3000
M205 X10 Y10
G1 F2400 E126.2976
G0 F3000 X148.819 Y104.396
M204 S1800
M205 X8 Y8
G1 F2400 E132.2976
G1 F1800 X143.228 Y101.168 E132.74852
M204 S3000
M205 X10 Y10
G0 F3000 X143.229 Y102.058
M204 S1800
M205 X8 Y8
G1 F1800 X148.818 Y98.831 E133.19929
M204 S3000
M205 X10 Y10
G1 F2400 E127.19929
G0 F3000 X148.819 Y95.158
M204 S1800
M205 X8 Y8
G1 F2400 E133.19929
G1 F1800 X143.228 Y91.93 E133.65022
M204 S3000
M205 X10 Y10
G0 F3000 X143.229 Y92.82
M204 S1800
M205 X8 Y8
G1 F1800 X148.818 Y89.593 E134.10098
M204 S3000
M205 X10 Y10
G1 F2400 E128.10098
G0 F3000 X148.819 Y85.921
M204 S1800
M205 X8 Y8
G1 F2400 E134.10098
G1 F1800 X143.229 Y82.693 E134.55185
M204 S3000
M205 X10 Y10
G0 F3000 X143.229 Y83.583
M204 S1800
M205 X8 Y8
G1 F1800 X148.818 Y80.356 E135.00262
M204 S3000
M205 X10 Y10
G1 F2400 E129.00262
G0 F3000 X148.819 Y76.683
M204 S1800
M205 X8 Y8
G1 F2400 E135.00262
G1 F1800 X143.229 Y73.455 E135.45348
M204 S3000
M205 X10 Y10
G0 F3000 X143.229 Y74.345
M204 S1800
M205 X8 Y8
G1 F1800 X148.818 Y71.118 E135.90425
M204 S3000
M205 X10 Y10
G1 F2400 E129.90425
G0 F3000 X148.819 Y67.445
M204 S1800
M205 X8 Y8
G1 F2400 E135.90425
G1 F1800 X143.187 Y64.194 E136.35845
M204 S3000
M205 X10 Y10
G0 F3000 X143.23 Y65.107
M204 S1800
M205 X8 Y8
G1 F1800 X148.818 Y61.881 E136.80913
M204 S3000
M205 X10 Y10
G1 F2400 E130.80913
G0 F3000 X143.229 Y119.643
M204 S1800
M205 X8 Y8
G1 F2400 E136.80913
G1 F1800 X148.468 Y122.668 E137.23167
M204 S3000
M205 X10 Y10
G1 F2400 E131.23167
;MESH:Top.stl
G0 F3000 X147.686 Y125.214
G0 X130.065 Y130.873
G0 X128.028 Y131.717
G0 X126.28 Y133.058
G0 X124.939 Y134.806
G0 X124.256 Y136.455
G0 X123.343 Y139.028
G1 F2400 E137.23167
G0 F3000 X123.404 Y139.021
M204 S1800
M205 X8 Y8
;TYPE:WALL-INNER
G1 F1800 X123.708 Y136.724 E137.39351
G1 X124.587 Y134.601 E137.554
G1 X125.992 Y132.77 E137.7152
G1 X127.736 Y131.432 E137.86873
G1 X127.926 Y131.322 E137.88406
G1 X129.952 Y130.483 E138.03723
G1 X132.14 Y130.194 E138.19138
G1 X132.36 Y130.194 E138.20674
G1 X134.434 Y130.467 E138.35285
G1 X134.646 Y130.524 E138.36819
G1 X136.574 Y131.322 E138.51393
G1 X136.764 Y131.432 E138.52926
G1 X138.508 Y132.77 E138.6828
G1 X139.912 Y134.6 E138.8439
G1 X140.753 Y136.632 E138.9975
G1 X140.81 Y136.844 E139.01283
G1 X141.083 Y138.918 E139.15895
G1 X141.091 Y139.027 E139.16658
G1 X141.083 Y139.138 E139.17435
G1 X140.797 Y141.319 E139.32799
