;FLAVOR:Marlin
;TIME:9485
;Filament used: 14.5916m
;Layer height: 0.3
;MINX:55.5
;MINY:52.5
;MINZ:0.3
;MAXX:154.501
;MAXY:157.501
;MAXZ:13.5
;Generated with Cura_SteamEngine 5.2.1
M140 S60
M105
M190 S60
M104 S200
M105
M109 S200
M82 ;absolute extrusion mode
G21 ;metric values
G90 ;absolute positioning
M82 ;set extruder to absolute mode
M107 ;start with the fan off
G28 X0 Y0 ;move X/Y to min endstops
G28 Z0 ;move Z to min endstops
G1 Z15.0 F100 ;move the platform down 15mm
G92 E0 ;zero the extruded length
G1 F200 E3 ;extrude 3mm of feed stock
G92 E0 ;zero the extruded length again
G1 F100
G0 Y20 F100
M117 Printing...
G5
G92 E0
G92 E0
G1 F2400 E-6
;LAYER_COUNT:45
;LAYER:0
M107
M204 S3000
M205 X10 Y10
G1 F600 Z0.375
G0 F3000 X57.433 Y54.335 Z0.375
M204 S1800
M205 X8 Y8
;TYPE:SKIRT
G1 F600 Z0.3
G1 F2400 E0
G1 X57.971 Y53.864 E0.04994
G1 X58.559 Y53.456 E0.09993
G1 X59.188 Y53.116 E0.14987
G1 X59.852 Y52.849 E0.19986
G1 X60.541 Y52.657 E0.24982
G1 X61.388 Y52.52 E0.30975
G1 X62.23 Y52.5 E0.36857
G1 X147.485 Y52.501 E6.32332
G1 X148.183 Y52.511 E6.37208
G1 X148.896 Y52.561 E6.422
G1 X149.6 Y52.69 E6.47199
G1 X150.284 Y52.898 E6.52192
G1 X150.941 Y53.18 E6.57186
G1 X151.563 Y53.534 E6.62185
G1 X152.141 Y53.955 E6.67179
G1 X152.669 Y54.438 E6.72177
G1 X153.139 Y54.976 E6.77167
G1 X153.547 Y55.564 E6.82166
G1 X153.886 Y56.194 E6.87163
G1 X154.153 Y56.857 E6.92155
G1 X154.344 Y57.547 E6.97156
G1 X154.48 Y58.397 E7.03168
G1 X154.5 Y59.23 E7.08988
G1 X154.501 Y150.443 E13.46077
G1 X154.492 Y151.171 E13.51162
G1 X154.443 Y151.885 E13.56161
G1 X154.315 Y152.588 E13.61152
G1 X154.109 Y153.273 E13.66148
G1 X153.828 Y153.931 E13.71145
G1 X153.475 Y154.553 E13.76141
G1 X153.055 Y155.133 E13.81142
G1 X152.573 Y155.661 E13.86136
G1 X152.036 Y156.133 E13.9113
G1 X151.448 Y156.541 E13.96128
G1 X150.819 Y156.882 E14.01126
G1 X150.156 Y157.15 E14.06121
G1 X149.468 Y157.342 E14.1111
G1 X148.615 Y157.481 E14.17146
G1 X147.772 Y157.501 E14.23036
G1 X62.515 Y157.499 E20.18524
G1 X61.818 Y157.489 E20.23393
G1 X61.105 Y157.439 E20.28385
G1 X60.401 Y157.31 E20.33384
G1 X59.717 Y157.102 E20.38378
G1 X59.059 Y156.82 E20.43378
G1 X58.438 Y156.466 E20.48371
G1 X57.86 Y156.045 E20.53365
G1 X57.332 Y155.562 E20.58363
G1 X56.862 Y155.024 E20.63353
G1 X56.454 Y154.436 E20.68352
G1 X56.115 Y153.806 E20.73349
G1 X55.848 Y153.142 E20.78348
G1 X55.657 Y152.453 E20.83341
G1 X55.521 Y151.603 E20.89354
G1 X55.5 Y150.758 E20.95258
G1 X55.501 Y59.487 E27.32752
G1 X55.51 Y58.822 E27.37397
G1 X55.559 Y58.109 E27.42389
G1 X55.688 Y57.405 E27.47388
G1 X55.895 Y56.721 E27.52379
G1 X56.177 Y56.063 E27.57379
G1 X56.53 Y55.441 E27.62375
G1 X56.95 Y54.863 E27.67365
G1 X57.433 Y54.335 E27.72363
M204 S3000
M205 X10 Y10
G0 F3000 X57.98 Y54.588
M204 S1800
M205 X8 Y8
G1 F2400 X58.512 Y54.159 E27.77137
G1 X59.09 Y53.794 E27.81911
G1 X59.707 Y53.5 E27.86685
G1 X60.353 Y53.28 E27.91452
G1 X61.021 Y53.137 E27.96223
G1 X61.866 Y53.06 E28.0215
G1 X147.477 Y53.061 E34.00111
G1 X148.175 Y53.071 E34.04986
G1 X148.856 Y53.12 E34.09755
G1 X149.527 Y53.249 E34.14528
G1 X150.178 Y53.456 E34.19299
G1 X150.801 Y53.737 E34.24073
G1 X151.387 Y54.089 E34.28847
G1 X151.927 Y54.507 E34.33617
G1 X152.415 Y54.985 E34.38388
G1 X152.844 Y55.517 E34.43162
G1 X153.208 Y56.095 E34.47933
G1 X153.502 Y56.712 E34.52706
G1 X153.721 Y57.359 E34.57477
G1 X153.864 Y58.027 E34.62249
G1 X153.94 Y58.868 E34.68147
G1 X153.941 Y150.436 E41.07715
G1 X153.932 Y151.164 E41.128
G1 X153.883 Y151.846 E41.17576
G1 X153.756 Y152.517 E41.22346
G1 X153.55 Y153.169 E41.27122
G1 X153.27 Y153.792 E41.31893
G1 X152.92 Y154.378 E41.3666
G1 X152.503 Y154.92 E41.41436
G1 X152.026 Y155.408 E41.46203
G1 X151.495 Y155.838 E41.50975
G1 X150.917 Y156.203 E41.5575
G1 X150.301 Y156.498 E41.6052
G1 X149.654 Y156.719 E41.65296
G1 X148.986 Y156.863 E41.70069
G1 X148.136 Y156.941 E41.76031
G1 X62.523 Y156.939 E47.74006
G1 X61.826 Y156.929 E47.78874
G1 X61.145 Y156.88 E47.83643
G1 X60.474 Y156.751 E47.88416
G1 X59.823 Y156.544 E47.93187
G1 X59.2 Y156.263 E47.97961
G1 X58.614 Y155.911 E48.02735
G1 X58.074 Y155.493 E48.07505
G1 X57.586 Y155.015 E48.12276
G1 X57.157 Y154.483 E48.1705
G1 X56.793 Y153.905 E48.21821
G1 X56.499 Y153.288 E48.26594
G1 X56.28 Y152.641 E48.31365
G1 X56.137 Y151.973 E48.36137
G1 X56.073 Y151.266 E48.41095
G1 X56.06 Y150.758 E48.44644
G1 X56.061 Y59.495 E54.82082
G1 X56.07 Y58.83 E54.86728
G1 X56.119 Y58.149 E54.91496
G1 X56.247 Y57.477 E54.96275
G1 X56.453 Y56.826 E55.01044
G1 X56.734 Y56.203 E55.05817
G1 X57.085 Y55.617 E55.10588
G1 X57.503 Y55.076 E55.15364
G1 X57.98 Y54.588 E55.2013
M204 S3000
M205 X10 Y10
G0 F3000 X58.526 Y54.855
M204 S1800
M205 X8 Y8
G1 F2400 X59.049 Y54.471 E55.24662
G1 X59.616 Y54.153 E55.29202
G1 X60.217 Y53.907 E55.33738
G1 X60.844 Y53.737 E55.38276
G1 X61.856 Y53.62 E55.45391
G1 X147.469 Y53.621 E61.43366
G1 X148.167 Y53.631 E61.48242
G1 X148.814 Y53.68 E61.52774
G1 X149.451 Y53.808 E61.57312
G1 X150.067 Y54.014 E61.61849
G1 X150.654 Y54.294 E61.66391
G1 X151.201 Y54.643 E61.70923
G1 X151.702 Y55.057 E61.75463
G1 X152.147 Y55.53 E61.79999
G1 X152.532 Y56.054 E61.8454
G1 X152.849 Y56.621 E61.89078
G1 X153.094 Y57.222 E61.93611
G1 X153.263 Y57.849 E61.98146
G1 X153.38 Y58.857 E62.05234
G1 X153.381 Y150.429 E68.44831
G1 X153.372 Y151.157 E68.49916
G1 X153.324 Y151.805 E68.54454
G1 X153.196 Y152.442 E68.58992
G1 X152.992 Y153.059 E68.63531
G1 X152.713 Y153.646 E68.68071
G1 X152.365 Y154.194 E68.72605
G1 X151.952 Y154.695 E68.7714
G1 X151.48 Y155.142 E68.8168
G1 X150.957 Y155.527 E68.86216
G1 X150.391 Y155.845 E68.90751
G1 X149.79 Y156.092 E68.95289
G1 X149.163 Y156.262 E68.99827
G1 X148.146 Y156.381 E69.06979
G1 X62.531 Y156.379 E75.04968
G1 X61.834 Y156.369 E75.09837
G1 X61.187 Y156.32 E75.14369
G1 X60.55 Y156.192 E75.18907
G1 X59.934 Y155.986 E75.23443
G1 X59.347 Y155.706 E75.27986
G1 X58.8 Y155.357 E75.32518
G1 X58.299 Y154.942 E75.37062
G1 X57.854 Y154.47 E75.41593
G1 X57.469 Y153.946 E75.46134
G1 X57.152 Y153.379 E75.50672
G1 X56.907 Y152.778 E75.55205
G1 X56.738 Y152.151 E75.5974
G1 X56.62 Y151.147 E75.66801
G1 X56.62 Y59.503 E82.069
G1 X56.629 Y58.838 E82.11546
G1 X56.678 Y58.19 E82.16085
G1 X56.806 Y57.553 E82.20623
G1 X57.011 Y56.936 E82.25164
G1 X57.291 Y56.35 E82.297
G1 X57.64 Y55.802 E82.34238
G1 X58.054 Y55.301 E82.38778
G1 X58.526 Y54.855 E82.43313
M204 S3000
M205 X10 Y10
G1 F2400 E76.43313
G1 F600 Z0.375
G0 F3000 X77.464 Y125.558 Z0.375
M204 S1800
M205 X8 Y8
;TYPE:SUPPORT
G1 F600 Z0.3
G1 F2400 E82.43313
G1 F2520 X77.027 Y126.052 E82.46604
G1 X76.867 Y126.701 E82.49939
G1 X77.027 Y127.348 E82.53264
G1 X77.463 Y127.842 E82.56551
G1 X78.081 Y128.074 E82.59844
G1 X78.74 Y127.994 E82.63156
G1 X79.284 Y127.619 E82.66452
G1 X79.595 Y127.029 E82.6978
G1 X79.595 Y126.7 E82.71421
G1 X79.595 Y126.371 E82.73063
G1 X79.284 Y125.782 E82.76386
G1 X78.74 Y125.407 E82.79682
G1 X78.081 Y125.326 E82.82995
G1 X77.464 Y125.558 E82.86283
M204 S3000
M205 X10 Y10
G1 F2400 E76.86283
G1 F600 Z0.375
G0 F3000 X76.686 Y123.503 Z0.375
G0 X130.867 Y126.651
M204 S1800
M205 X8 Y8
G1 F600 Z0.3
G1 F2400 E82.86283
G1 F2520 X131.027 Y127.298 E82.89608
G1 X131.463 Y127.792 E82.92896
G1 X132.081 Y128.024 E82.96189
G1 X132.74 Y127.944 E82.99501
G1 X133.284 Y127.569 E83.02797
G1 X133.595 Y126.979 E83.06125
G1 X133.595 Y126.65 E83.07766
G1 X133.595 Y126.321 E83.09407
G1 X133.284 Y125.732 E83.1273
G1 X132.74 Y125.357 E83.16027
G1 X132.081 Y125.276 E83.19339
G1 X131.464 Y125.508 E83.22628
G1 X131.027 Y126.002 E83.25918
G1 X130.867 Y126.651 E83.29253
M204 S3000
M205 X10 Y10
G0 F3000 X131.314 Y127.412
M204 S1800
M205 X8 Y8
G1 F1800 X133.381 Y126.219 E83.45923
M204 S3000
M205 X10 Y10
G1 F2400 E77.45923
;MESH:Bottom.stl
G0 F3000 X130.863 Y125.92
G0 X129.893 Y125.413
G0 X129.109 Y126.798
G1 F2400 E83.45923
G0 F3000 X129.167 Y126.785
M204 S1800
M205 X8 Y8
;TYPE:WALL-INNER
G1 F1800 X129.17 Y126.515 E83.47809
G1 X129.448 Y125.379 E83.55977
G1 X129.579 Y125.103 E83.58111
G1 X130.425 Y124.149 E83.67017
G1 X130.651 Y124.022 E83.68828
G1 X131.737 Y123.612 E83.76936
G1 X132.034 Y123.578 E83.79024
G1 X133.213 Y123.718 E83.87316
G1 X133.47 Y123.818 E83.89242
G1 X134.472 Y124.512 E83.97756
G1 X134.634 Y124.692 E83.99447
G1 X135.21 Y125.775 E84.08015
G1 X135.275 Y126.038 E84.09907
G1 X135.275 Y127.26 E84.18442
G1 X135.179 Y127.582 E84.20789
G1 X134.634 Y128.608 E84.28904
G1 X134.472 Y128.788 E84.30595
G1 X133.472 Y129.481 E84.39093
G1 X133.258 Y129.569 E84.40709
G1 X133.194 Y129.583 E84.41167
G1 X132.023 Y129.723 E84.49404
G1 X131.735 Y129.687 E84.51431
G1 X130.601 Y129.259 E84.59897
G1 X130.375 Y129.093 E84.61856
G1 X129.572 Y128.182 E84.70338
G1 X129.462 Y127.966 E84.72031
G1 X129.167 Y126.785 E84.80533
M204 S3000
M205 X10 Y10
G0 F3000 X129.109 Y126.798
G0 X77.876 Y129.791
G0 X76.482 Y129.262
G0 X75.493 Y128.147
G0 X75.112 Y126.859
G0 X75.172 Y126.846
M204 S1800
M205 X8 Y8
G1 F1800 X75.172 Y126.554 E84.82573
G1 X75.466 Y125.372 E84.9108
G1 X75.58 Y125.157 E84.9278
G1 X76.409 Y124.216 E85.01539
G1 X76.618 Y124.086 E85.03258
G1 X77.747 Y123.656 E85.11696
G1 X78.005 Y123.627 E85.1351
G1 X79.148 Y123.76 E85.21547
G1 X79.465 Y123.865 E85.2388
G1 X80.441 Y124.537 E85.32156
G1 X80.634 Y124.742 E85.34123
G1 X81.232 Y125.87 E85.4304
G1 X81.273 Y126.095 E85.44638
G1 X81.274 Y127.298 E85.5304
G1 X81.262 Y127.391 E85.53695
G1 X81.197 Y127.596 E85.55197
G1 X80.655 Y128.624 E85.63314
G1 X80.457 Y128.851 E85.65418
G1 X79.479 Y129.527 E85.73722
G1 X79.194 Y129.633 E85.75846
G1 X78.023 Y129.773 E85.84083
G1 X77.792 Y129.758 E85.857
G1 X76.618 Y129.314 E85.94467
G1 X76.395 Y129.162 E85.96352
G1 X75.58 Y128.243 E86.04931
G1 X75.466 Y128.028 E86.06631
G1 X75.172 Y126.846 E86.15138
M204 S3000
M205 X10 Y10
G0 F3000 X75.112 Y126.859
G0 X62.8 Y59.74
G0 X62.74 Y59.74
M204 S1800
M205 X8 Y8
G1 F1800 X62.741 Y150.259 E92.4738
G1 X147.261 Y150.261 E98.37721
G1 X147.261 Y94.414 E102.27791
G1 X147.26 Y59.74 E104.69976
G1 X62.74 Y59.74 E110.60317
M204 S3000
M205 X10 Y10
G0 F3000 X62.18 Y59.18
M204 S1800
M205 X8 Y8
;TYPE:WALL-OUTER
G1 F1800 X62.181 Y150.819 E117.00381
G1 X147.821 Y150.821 E122.98545
G1 X147.821 Y94.414 E126.92527
G1 X147.82 Y59.18 E129.38623
G1 X62.18 Y59.18 E135.36787
M204 S3000
M205 X10 Y10
G0 F3000 X62.18 Y59.38
G0 X62.77 Y59.77
G0 X75.11 Y126.552
G0 X75.712 Y126.7
M204 S1800
M205 X8 Y8
G1 F1800 X76.002 Y125.528 E135.4522
G1 X76.815 Y124.609 E135.5379
G1 X77.947 Y124.18 E135.62245
G1 X79.154 Y124.328 E135.70739
G1 X80.15 Y125.018 E135.79202
G1 X80.716 Y126.101 E135.87737
G1 X80.711 Y127.291 E135.96049
G1 X80.699 Y127.335 E135.96367
G1 X80.144 Y128.388 E136.04681
G1 X79.155 Y129.072 E136.1308
G1 X77.947 Y129.221 E136.21581
G1 X76.815 Y128.791 E136.30039
G1 X76.01 Y127.888 E136.38489
G1 X75.712 Y126.7 E136.47043
M204 S3000
M205 X10 Y10
G0 F3000 X75.76 Y126.506
G0 X75.158 Y126.358
G0 X75.493 Y125.253
G0 X76.482 Y124.138
G0 X77.876 Y123.609
G0 X129.11 Y126.799
G0 X129.712 Y126.652
M204 S1800
M205 X8 Y8
G1 F1800 X130.005 Y125.468 E136.55563
G1 X130.812 Y124.56 E136.64047
G1 X131.945 Y124.131 E136.72509
G1 X133.143 Y124.273 E136.80935
G1 X134.149 Y124.966 E136.89468
G1 X134.713 Y126.04 E136.97941
G1 X134.711 Y127.264 E137.0649
G1 X134.149 Y128.334 E137.14932
G1 X133.172 Y129.007 E137.23218
G1 X133.118 Y129.027 E137.2362
G1 X131.947 Y129.171 E137.31861
G1 X130.808 Y128.737 E137.40374
G1 X130.002 Y127.828 E137.4886
G1 X129.712 Y126.652 E137.5732
M204 S3000
M205 X10 Y10
G0 F3000 X129.76 Y126.458
G0 X129.157 Y126.31
G0 X128.616 Y126.503
M204 S1800
M205 X8 Y8
;TYPE:SKIN
G1 F1800 X128.94 Y125.182 E137.6682
G1 X129.096 Y124.838 E137.69458
G1 X130.031 Y123.78 E137.7932
G1 X130.344 Y123.562 E137.81984
G1 X131.609 Y123.085 E137.91427
G1 X132.036 Y123.039 E137.94427
G1 X133.366 Y123.197 E138.03782
G1 X133.744 Y123.351 E138.06632
G1 X134.847 Y124.109 E138.1598
G1 X135.104 Y124.415 E138.18771
G1 X135.72 Y125.598 E138.28087
G1 X135.813 Y125.933 E138.30516
G1 X135.814 Y127.317 E138.40182
G1 X135.718 Y127.721 E138.43083
G1 X135.064 Y128.954 E138.52831
G1 X134.82 Y129.202 E138.55261
G1 X133.72 Y129.969 E138.64628
G1 X133.354 Y130.107 E138.6736
G1 X132.146 Y130.255 E138.7586
G1 X131.632 Y130.226 E138.79456
G1 X130.361 Y129.745 E138.88948
G1 X129.993 Y129.477 E138.92128
G1 X129.099 Y128.467 E139.01549
G1 X128.936 Y128.098 E139.04366
G1 X128.643 Y126.914 E139.12886
G1 X128.616 Y126.503 E139.15762
M204 S3000
M205 X10 Y10
G0 F3000 X77.876 Y129.791
G0 X76.748 Y129.363
G0 X75.134 Y128.562
M204 S1800
M205 X8 Y8
G1 F1800 X74.939 Y128.169 E139.18827
G1 X74.632 Y126.91 E139.27878
G1 X74.642 Y126.442 E139.31148
G1 X74.949 Y125.184 E139.40192
G1 X75.142 Y124.839 E139.42953
G1 X76.038 Y123.82 E139.52431
G1 X76.37 Y123.598 E139.5522
G1 X77.578 Y123.142 E139.64239
G1 X77.998 Y123.087 E139.67197
G1 X79.345 Y123.24 E139.76666
G1 X79.699 Y123.364 E139.79286
G1 X80.768 Y124.105 E139.88371
G1 X81.06 Y124.386 E139.91202
G1 X81.741 Y125.679 E140.01409
G1 X81.812 Y126.041 E140.03985
G1 X81.815 Y127.3 E140.12779
G1 X81.739 Y127.728 E140.15815
G1 X81.072 Y128.99 E140.25785
G1 X80.794 Y129.274 E140.28561
G1 X79.725 Y130.016 E140.3765
G1 X79.364 Y130.155 E140.40352
G1 X78.146 Y130.305 E140.48923
G1 X77.632 Y130.277 E140.52519
G1 X76.368 Y129.794 E140.6197
G1 X76.029 Y129.562 E140.64839
G1 X75.134 Y128.562 E140.74213
M204 S3000
M205 X10 Y10
G0 F3000 X63.281 Y60.281
M204 S1800
M205 X8 Y8
G1 F1800 X63.281 Y149.719 E146.98904
G1 X146.721 Y149.721 E152.81701
G1 X146.721 Y94.413 E156.68007
G1 X146.72 Y60.28 E159.06413
G1 X63.281 Y60.281 E164.89204
M204 S3000
M205 X10 Y10
G0 F3000 X146.092 Y60.56
M204 S1800
M205 X8 Y8
G1 F1800 X146.44 Y60.908 E164.92641
M204 S3000
M205 X10 Y10
G0 F3000 X146.44 Y61.7
M204 S1800
M205 X8 Y8
G1 F1800 X145.3 Y60.56 E165.03902
M204 S3000
M205 X10 Y10
G0 F3000 X144.508 Y60.56
M204 S1800
M205 X8 Y8
G1 F1800 X146.44 Y62.492 E165.22986
M204 S3000
M205 X10 Y10
G0 F3000 X146.44 Y63.284
M204 S1800
M205 X8 Y8
G1 F1800 X143.716 Y60.56 E165.49893
M204 S3000
M205 X10 Y10
G0 F3000 X142.924 Y60.56
M204 S1800
M205 X8 Y8
G1 F1800 X146.44 Y64.076 E165.84623
M204 S3000
M205 X10 Y10
G0 F3000 X146.44 Y64.868
M204 S1800
M205 X8 Y8
G1 F1800 X142.132 Y60.56 E166.27176
M204 S3000
M205 X10 Y10
G0 F3000 X141.34 Y60.56
M204 S1800
M205 X8 Y8
G1 F1800 X146.44 Y65.66 E166.77553
M204 S3000
M205 X10 Y10
G0 F3000 X146.44 Y66.452
M204 S1800
M205 X8 Y8
G1 F1800 X140.548 Y60.56 E167.35753
M204 S3000
M205 X10 Y10
G0 F3000 X139.756 Y60.56
M204 S1800
M205 X8 Y8
G1 F1800 X146.44 Y67.244 E168.01775
M204 S3000
M205 X10 Y10
G0 F3000 X146.44 Y68.036
M204 S1800
M205 X8 Y8
G1 F1800 X138.964 Y60.56 E168.75622
M204 S3000
M205 X10 Y10
G0 F3000 X138.172 Y60.56
M204 S1800
M205 X8 Y8
G1 F1800 X146.44 Y68.828 E169.57291
M204 S3000
M205 X10 Y10
G0 F3000 X146.44 Y69.62
M204 S1800
M205 X8 Y8
G1 F1800 X137.38 Y60.56 E170.46783
M204 S3000
M205 X10 Y10
G0 F3000 X136.588 Y60.56
M204 S1800
M205 X8 Y8
G1 F1800 X146.44 Y70.412 E171.44099
M204 S3000
M205 X10 Y10
G0 F3000 X146.44 Y71.204
M204 S1800
M205 X8 Y8
G1 F1800 X135.797 Y60.56 E172.49233
M204 S3000
M205 X10 Y10
G0 F3000 X135.005 Y60.56
M204 S1800
M205 X8 Y8
G1 F1800 X146.44 Y71.996 E173.6219
M204 S3000
M205 X10 Y10
G0 F3000 X146.44 Y72.788
M204 S1800
M205 X8 Y8
G1 F1800 X134.213 Y60.56 E174.8297
M204 S3000
M205 X10 Y10
G0 F3000 X133.421 Y60.56
M204 S1800
M205 X8 Y8
G1 F1800 X146.44 Y73.58 E176.11574
M204 S3000
M205 X10 Y10
G0 F3000 X146.44 Y74.372
M204 S1800
M205 X8 Y8
G1 F1800 X132.629 Y60.56 E177.48
M204 S3000
M205 X10 Y10
G0 F3000 X131.837 Y60.56
M204 S1800
M205 X8 Y8
G1 F1800 X146.44 Y75.164 E178.9225
M204 S3000
M205 X10 Y10
G0 F3000 X146.44 Y75.955
M204 S1800
M205 X8 Y8
G1 F1800 X131.045 Y60.56 E180.44318
M204 S3000
M205 X10 Y10
G0 F3000 X130.253 Y60.56
M204 S1800
M205 X8 Y8
G1 F1800 X146.44 Y76.747 E182.04209
M204 S3000
M205 X10 Y10
G0 F3000 X146.44 Y77.539
M204 S1800
M205 X8 Y8
G1 F1800 X129.461 Y60.56 E183.71924
M204 S3000
M205 X10 Y10
G0 F3000 X128.669 Y60.56
M204 S1800
M205 X8 Y8
G1 F1800 X146.44 Y78.331 E185.47461
M204 S3000
M205 X10 Y10
G0 F3000 X146.44 Y79.123
M204 S1800
M205 X8 Y8
G1 F1800 X127.877 Y60.56 E187.30822
M204 S3000
M205 X10 Y10
