;FLAVOR:Marlin
;TIME:14095
;Filament used: 21.7607m
;Layer height: 0.3
;MINX:6.419
;MINY:52.5
;MINZ:0.3
;MAXX:198.209
;MAXY:158.5
;MAXZ:14.4
;Generated with Cura_SteamEngine 5.2.1
M140 S60
M105
M190 S60
M104 S200
M105
M109 S200
M82 ;absolute extrusion mode
G21 ;metric values
G90 ;absolute positioning
M82 ;set extruder to absolute mode
M107 ;start with the fan off
G28 X0 Y0 ;move X/Y to min endstops
G28 Z0 ;move Z to min endstops
G1 Z15.0 F100 ;move the platform down 15mm
G92 E0 ;zero the extruded length
G1 F200 E3 ;extrude 3mm of feed stock
G92 E0 ;zero the extruded length again
G1 F100
G0 Y20 F100
M117 Printing...
G5
G92 E0
G92 E0
G1 F2400 E-6
;LAYER_COUNT:48
;LAYER:0
M107
M204 S3000
M205 X10 Y10
G1 F600 Z0.375
G0 F3000 X11.458 Y52.677 Z0.375
M204 S1800
M205 X8 Y8
;TYPE:SKIRT
G1 F600 Z0.3
G1 F2400 E0
G1 X12.314 Y52.54 E0.06055
G1 X13.149 Y52.52 E0.11889
G1 X98.413 Y52.521 E6.07426
G1 X99.977 Y52.543 E6.18351
G1 X102.724 Y52.543 E6.37538
G1 X104.637 Y52.5 E6.50903
G1 X189.924 Y52.501 E12.46601
G1 X190.621 Y52.511 E12.5147
G1 X191.334 Y52.561 E12.56462
G1 X192.038 Y52.69 E12.61461
G1 X192.722 Y52.898 E12.66455
G1 X193.38 Y53.18 E12.71455
G1 X194.001 Y53.534 E12.76447
G1 X194.579 Y53.955 E12.81442
G1 X195.107 Y54.438 E12.8644
G1 X195.577 Y54.976 E12.9143
G1 X195.985 Y55.564 E12.96429
G1 X196.324 Y56.194 E13.01425
G1 X196.591 Y56.858 E13.06424
G1 X196.782 Y57.547 E13.11418
G1 X196.918 Y58.398 E13.17437
G1 X196.939 Y59.231 E13.23257
G1 X196.939 Y71.109 E14.06221
G1 X196.977 Y73.751 E14.24676
G1 X197.089 Y76.391 E14.43132
G1 X197.276 Y79.036 E14.61653
G1 X197.54 Y81.693 E14.80302
G1 X197.873 Y84.297 E14.98638
G1 X197.987 Y85.026 E15.03792
G1 X198.147 Y86.141 E15.1166
G1 X198.209 Y86.854 E15.16658
G1 X198.202 Y87.406 E15.20514
G1 X198.144 Y88.432 E15.27692
G1 X198.086 Y89.254 E15.33448
G1 X197.974 Y91.959 E15.52357
G1 X197.94 Y94.479 E15.6996
G1 X197.939 Y151.181 E19.66002
G1 X197.929 Y151.885 E19.7092
G1 X197.879 Y152.598 E19.75912
G1 X197.75 Y153.302 E19.80911
G1 X197.543 Y153.986 E19.85903
G1 X197.261 Y154.644 E19.90903
G1 X196.907 Y155.265 E19.95896
G1 X196.486 Y155.844 E20.00896
G1 X195.905 Y156.484 E20.06933
G1 X195.226 Y157.092 E20.13299
G1 X194.643 Y157.506 E20.18294
G1 X194.017 Y157.853 E20.23293
G1 X193.357 Y158.128 E20.28287
G1 X192.67 Y158.327 E20.33282
G1 X191.965 Y158.448 E20.38279
G1 X191.349 Y158.489 E20.42591
G1 X190.677 Y158.5 E20.47285
G1 X104.254 Y158.499 E26.50918
G1 X103.556 Y158.489 E26.55793
G1 X102.844 Y158.439 E26.60779
G1 X101.634 Y158.286 E26.69297
G1 X98.95 Y157.981 E26.88165
G1 X96.308 Y157.756 E27.06685
G1 X93.689 Y157.608 E27.25007
G1 X89.604 Y157.521 E27.53545
G1 X13.434 Y157.519 E32.85565
G1 X12.737 Y157.509 E32.90433
G1 X12.024 Y157.459 E32.95426
G1 X11.32 Y157.33 E33.00425
G1 X10.636 Y157.122 E33.05418
G1 X9.978 Y156.84 E33.10418
G1 X9.357 Y156.486 E33.15411
G1 X8.779 Y156.065 E33.20406
G1 X8.251 Y155.582 E33.25404
G1 X7.781 Y155.044 E33.30393
G1 X7.373 Y154.456 E33.35392
G1 X7.034 Y153.826 E33.40389
G1 X6.767 Y153.162 E33.45388
G1 X6.576 Y152.473 E33.50382
G1 X6.44 Y151.623 E33.56394
G1 X6.419 Y150.778 E33.62298
G1 X6.42 Y59.522 E39.99687
G1 X6.429 Y58.844 E40.04423
G1 X6.478 Y58.131 E40.09415
G1 X6.607 Y57.427 E40.14414
G1 X6.813 Y56.742 E40.1941
G1 X7.095 Y56.085 E40.24404
G1 X7.448 Y55.463 E40.29399
G1 X7.868 Y54.884 E40.34395
G1 X8.351 Y54.356 E40.39394
G1 X8.889 Y53.885 E40.44388
G1 X9.476 Y53.477 E40.49381
G1 X10.106 Y53.137 E40.54381
G1 X10.769 Y52.869 E40.59376
G1 X11.458 Y52.677 E40.64372
M204 S3000
M205 X10 Y10
G0 F3000 X11.271 Y53.3
M204 S1800
M205 X8 Y8
G1 F2400 X11.939 Y53.157 E40.69143
G1 X12.785 Y53.08 E40.75077
G1 X98.405 Y53.081 E46.731
G1 X99.969 Y53.103 E46.84025
G1 X102.737 Y53.103 E47.03359
G1 X104.637 Y53.06 E47.16633
G1 X189.916 Y53.061 E53.12275
G1 X190.613 Y53.071 E53.17144
G1 X191.294 Y53.12 E53.21913
G1 X191.965 Y53.249 E53.26685
G1 X192.616 Y53.456 E53.31457
G1 X193.239 Y53.737 E53.3623
G1 X193.825 Y54.089 E53.41005
G1 X194.365 Y54.507 E53.45775
G1 X194.853 Y54.985 E53.50546
G1 X195.282 Y55.517 E53.55319
G1 X195.646 Y56.095 E53.6009
G1 X195.94 Y56.712 E53.64864
G1 X196.159 Y57.359 E53.69635
G1 X196.302 Y58.027 E53.74406
G1 X196.366 Y58.728 E53.79323
G1 X196.379 Y59.231 E53.82837
G1 X196.379 Y71.109 E54.65801
G1 X196.416 Y73.748 E54.84235
G1 X196.531 Y76.455 E55.03159
G1 X196.716 Y79.058 E55.21386
G1 X196.983 Y81.75 E55.40281
G1 X197.32 Y84.386 E55.58843
G1 X197.433 Y85.105 E55.63926
G1 X197.593 Y86.22 E55.71794
G1 X197.662 Y87.041 E55.77548
G1 X197.586 Y88.393 E55.87006
G1 X197.525 Y89.261 E55.93084
G1 X197.415 Y91.929 E56.11735
G1 X197.38 Y94.479 E56.29547
G1 X197.379 Y151.173 E60.25534
G1 X197.369 Y151.877 E60.30452
G1 X197.32 Y152.558 E60.3522
G1 X197.191 Y153.229 E60.39993
G1 X196.984 Y153.881 E60.44771
G1 X196.703 Y154.503 E60.49538
G1 X196.352 Y155.089 E60.54309
G1 X195.934 Y155.63 E60.59084
G1 X195.364 Y156.22 E60.64814
G1 X194.853 Y156.674 E60.69589
G1 X194.293 Y157.065 E60.74359
G1 X193.691 Y157.388 E60.79131
G1 X193.055 Y157.639 E60.83906
G1 X192.395 Y157.813 E60.88674
G1 X191.618 Y157.924 E60.94156
G1 X190.677 Y157.94 E61.00729
G1 X104.262 Y157.939 E67.04306
G1 X103.564 Y157.929 E67.09182
G1 X102.914 Y157.884 E67.13733
G1 X101.688 Y157.729 E67.22364
G1 X98.988 Y157.422 E67.41344
G1 X96.355 Y157.198 E67.59801
G1 X93.704 Y157.048 E67.78347
G1 X89.616 Y156.961 E68.06907
G1 X13.442 Y156.959 E73.38954
G1 X12.745 Y156.949 E73.43822
G1 X12.064 Y156.9 E73.48591
G1 X11.393 Y156.771 E73.53364
G1 X10.742 Y156.564 E73.58135
G1 X10.119 Y156.283 E73.62909
G1 X9.533 Y155.931 E73.67683
G1 X8.993 Y155.513 E73.72453
G1 X8.505 Y155.035 E73.77224
G1 X8.076 Y154.503 E73.81998
G1 X7.712 Y153.925 E73.86769
G1 X7.418 Y153.308 E73.91542
G1 X7.199 Y152.661 E73.96313
G1 X7.056 Y151.993 E74.01085
G1 X6.992 Y151.286 E74.06043
G1 X6.979 Y150.778 E74.09592
G1 X6.98 Y59.529 E80.46933
G1 X6.989 Y58.851 E80.51669
G1 X7.038 Y58.17 E80.56438
G1 X7.166 Y57.499 E80.61209
G1 X7.372 Y56.847 E80.65985
G1 X7.652 Y56.224 E80.70755
G1 X8.003 Y55.638 E80.75526
G1 X8.421 Y55.097 E80.80302
G1 X8.898 Y54.609 E80.85068
G1 X9.43 Y54.18 E80.89841
G1 X10.008 Y53.815 E80.94616
G1 X10.624 Y53.521 E80.99383
G1 X11.271 Y53.3 E81.04159
M204 S3000
M205 X10 Y10
G0 F3000 X11.135 Y53.928
M204 S1800
M205 X8 Y8
G1 F2400 X11.762 Y53.758 E81.08696
G1 X12.774 Y53.64 E81.15813
G1 X98.397 Y53.641 E87.13858
G1 X99.961 Y53.663 E87.24783
G1 X102.707 Y53.663 E87.43962
G1 X104.514 Y53.621 E87.56587
G1 X189.908 Y53.621 E93.53032
G1 X190.605 Y53.631 E93.57901
G1 X191.252 Y53.68 E93.62433
G1 X191.889 Y53.808 E93.66971
G1 X192.505 Y54.014 E93.71508
G1 X193.092 Y54.294 E93.76051
G1 X193.639 Y54.643 E93.80583
G1 X194.14 Y55.058 E93.85126
G1 X194.585 Y55.53 E93.89657
G1 X194.97 Y56.054 E93.94199
G1 X195.287 Y56.621 E93.98736
G1 X195.532 Y57.222 E94.03269
G1 X195.701 Y57.849 E94.07805
G1 X195.819 Y58.857 E94.14894
G1 X195.819 Y71.109 E95.00469
G1 X195.857 Y73.78 E95.19127
G1 X195.97 Y76.446 E95.37765
G1 X196.162 Y79.153 E95.5672
G1 X196.425 Y81.806 E95.75341
G1 X196.762 Y84.44 E95.93888
G1 X196.868 Y85.114 E95.98654
G1 X197.038 Y86.3 E96.07022
G1 X197.1 Y87.059 E96.12341
G1 X197.027 Y88.353 E96.21394
G1 X196.965 Y89.233 E96.27555
G1 X196.856 Y91.861 E96.45927
G1 X196.82 Y94.551 E96.64717
G1 X196.819 Y151.165 E100.60145
G1 X196.809 Y151.869 E100.65062
G1 X196.76 Y152.517 E100.69601
G1 X196.632 Y153.154 E100.7414
G1 X196.426 Y153.77 E100.78676
G1 X196.147 Y154.356 E100.8321
G1 X195.797 Y154.904 E100.87751
G1 X195.144 Y155.669 E100.94776
G1 X194.481 Y156.254 E101.00952
G1 X193.945 Y156.621 E101.05489
G1 X193.368 Y156.92 E101.10028
G1 X192.759 Y157.145 E101.14563
G1 X192.126 Y157.294 E101.19105
G1 X191.329 Y157.369 E101.24697
G1 X190.677 Y157.38 E101.29251
G1 X104.27 Y157.379 E107.32772
G1 X103.572 Y157.369 E107.37648
G1 X102.984 Y157.328 E107.41765
G1 X101.742 Y157.171 E107.50509
G1 X99.064 Y156.867 E107.69334
G1 X96.397 Y156.64 E107.88029
G1 X93.719 Y156.488 E108.06764
G1 X89.628 Y156.401 E108.35344
G1 X13.45 Y156.399 E113.67419
G1 X12.753 Y156.389 E113.72288
G1 X12.106 Y156.34 E113.7682
G1 X11.469 Y156.212 E113.81358
G1 X10.853 Y156.006 E113.85895
G1 X10.266 Y155.726 E113.90438
G1 X9.719 Y155.377 E113.9497
G1 X9.218 Y154.962 E113.99514
G1 X8.773 Y154.49 E114.04044
G1 X8.388 Y153.966 E114.08586
G1 X8.071 Y153.399 E114.13123
G1 X7.826 Y152.798 E114.17656
G1 X7.657 Y152.171 E114.22192
G1 X7.539 Y151.167 E114.29253
G1 X7.539 Y59.537 E120.69254
G1 X7.548 Y58.859 E120.7399
G1 X7.597 Y58.211 E120.78529
G1 X7.725 Y57.574 E120.83068
G1 X7.93 Y56.958 E120.87602
G1 X8.209 Y56.371 E120.92142
G1 X8.558 Y55.823 E120.96679
G1 X8.972 Y55.322 E121.01219
G1 X9.444 Y54.876 E121.05755
G1 X9.967 Y54.491 E121.10291
G1 X10.534 Y54.174 E121.14828
G1 X11.135 Y53.928 E121.19364
M204 S3000
M205 X10 Y10
G1 F2400 E115.19364
G1 F600 Z0.375
G0 F3000 X28.383 Y125.578 Z0.375
M204 S1800
M205 X8 Y8
;TYPE:SUPPORT
G1 F600 Z0.3
G1 F2400 E121.19364
G1 F2520 X27.946 Y126.072 E121.22654
G1 X27.787 Y126.721 E121.25988
G1 X27.946 Y127.367 E121.29307
G1 X28.381 Y127.86 E121.32587
G1 X29.003 Y128.093 E121.35901
G1 X29.66 Y128.014 E121.39202
G1 X30.203 Y127.639 E121.42494
G1 X30.514 Y127.049 E121.45822
G1 X30.514 Y126.72 E121.47463
G1 X30.514 Y126.391 E121.49105
G1 X30.203 Y125.802 E121.52428
G1 X29.66 Y125.427 E121.5572
G1 X29 Y125.346 E121.59037
G1 X28.383 Y125.578 E121.62326
M204 S3000
M205 X10 Y10
G0 F3000 X28.004 Y127.019
M204 S1800
M205 X8 Y8
G1 F1800 X29.511 Y127.889 E121.7448
M204 S3000
M205 X10 Y10
G1 F2400 E115.7448
G1 F600 Z0.375
G0 F3000 X81.787 Y126.671 Z0.375
M204 S1800
M205 X8 Y8
G1 F600 Z0.3
G1 F2400 E121.7448
G1 F2520 X81.946 Y127.317 E121.77799
G1 X82.381 Y127.81 E121.81079
G1 X83.003 Y128.043 E121.84393
G1 X83.66 Y127.964 E121.87694
G1 X84.203 Y127.589 E121.90987
G1 X84.514 Y126.999 E121.94314
G1 X84.514 Y126.67 E121.95955
G1 X84.514 Y126.341 E121.97597
G1 X84.203 Y125.752 E122.0092
G1 X83.66 Y125.377 E122.04212
G1 X83 Y125.296 E122.0753
G1 X82.383 Y125.528 E122.10818
G1 X81.946 Y126.022 E122.14109
G1 X81.787 Y126.671 E122.17442
M204 S3000
M205 X10 Y10
G0 F3000 X82.686 Y127.775
M204 S1800
M205 X8 Y8
G1 F1800 X84.372 Y126.801 E122.31042
M204 S3000
M205 X10 Y10
G1 F2400 E116.31042
G1 F600 Z0.375
G0 F3000 X103.479 Y151.741 Z0.375
M204 S1800
M205 X8 Y8
G1 F600 Z0.3
G1 F2400 E122.31042
G1 F2520 X103.698 Y151.96 E122.32587
G1 X191.18 Y151.96 E126.69037
G1 X191.4 Y151.74 E126.70589
G1 X191.4 Y87.356 E129.91802
G1 X191.481 Y87.19 E129.92724
G1 X187.53 Y87.191 E130.12435
G1 X187.527 Y147.679 E133.14211
G1 X187.471 Y147.786 E133.14814
G1 X187.225 Y148.032 E133.16549
G1 X187.118 Y148.088 E133.17152
G1 X107.732 Y148.09 E137.1321
G1 X107.407 Y147.786 E137.1543
G1 X107.351 Y147.679 E137.16033
G1 X107.349 Y87.19 E140.17814
G1 X103.402 Y87.191 E140.37505
G1 X103.479 Y87.352 E140.38396
G1 X103.479 Y151.741 E143.59634
M204 S3000
M205 X10 Y10
G0 F3000 X104 Y151.82
M204 S1800
M205 X8 Y8
G1 F1800 X104 Y87.33 E148.10073
M204 S3000
M205 X10 Y10
G0 F3000 X103.617 Y87.536
M204 S1800
M205 X8 Y8
G1 F1800 X107.209 Y89.61 E148.39043
M204 S3000
M205 X10 Y10
G0 F3000 X104.74 Y87.329
M204 S1800
M205 X8 Y8
G1 F1800 X103.618 Y87.977 E148.48093
M204 S3000
M205 X10 Y10
G1 F2400 E142.48093
G0 F3000 X107.208 Y95.142
M204 S1800
M205 X8 Y8
G1 F2400 E148.48093
G1 F1800 X103.618 Y97.214 E148.77044
M204 S3000
M205 X10 Y10
G0 F3000 X103.618 Y96.774
M204 S1800
M205 X8 Y8
G1 F1800 X107.21 Y98.848 E149.06015
M204 S3000
M205 X10 Y10
G1 F2400 E143.06015
G0 F3000 X107.209 Y104.379
M204 S1800
M205 X8 Y8
G1 F2400 E149.06015
G1 F1800 X103.618 Y106.452 E149.34976
M204 S3000
M205 X10 Y10
G0 F3000 X103.618 Y106.012
M204 S1800
M205 X8 Y8
G1 F1800 X107.21 Y108.086 E149.63947
M204 S3000
M205 X10 Y10
G1 F2400 E143.63947
G0 F3000 X107.209 Y113.616
M204 S1800
M205 X8 Y8
G1 F2400 E149.63947
G1 F1800 X103.618 Y115.69 E149.92911
M204 S3000
M205 X10 Y10
G0 F3000 X103.618 Y115.249
M204 S1800
M205 X8 Y8
G1 F1800 X107.211 Y117.324 E150.21891
M204 S3000
M205 X10 Y10
G1 F2400 E144.21891
G0 F3000 X107.21 Y122.854
M204 S1800
M205 X8 Y8
G1 F2400 E150.21891
G1 F1800 X103.619 Y124.927 E150.50852
M204 S3000
M205 X10 Y10
G0 F3000 X103.618 Y124.487
M204 S1800
M205 X8 Y8
G1 F1800 X107.212 Y126.562 E150.79839
M204 S3000
M205 X10 Y10
G1 F2400 E144.79839
G0 F3000 X107.211 Y132.091
M204 S1800
M205 X8 Y8
G1 F2400 E150.79839
G1 F1800 X103.618 Y134.165 E151.08815
M204 S3000
M205 X10 Y10
G0 F3000 X103.618 Y133.725
M204 S1800
M205 X8 Y8
G1 F1800 X107.212 Y135.8 E151.37801
M204 S3000
M205 X10 Y10
G1 F2400 E145.37801
G0 F3000 X107.212 Y141.327
M204 S1800
M205 X8 Y8
G1 F2400 E151.37801
G1 F1800 X103.618 Y143.402 E151.66788
M204 S3000
M205 X10 Y10
G0 F3000 X103.618 Y142.962
M204 S1800
M205 X8 Y8
G1 F1800 X107.213 Y145.038 E151.95783
M204 S3000
M205 X10 Y10
G1 F2400 E145.95783
G0 F3000 X111.26 Y148.228
M204 S1800
M205 X8 Y8
G1 F2400 E151.95783
G1 F1800 X105.04 Y151.819 E152.45948
M204 S3000
M205 X10 Y10
G1 F2400 E146.45948
G0 F3000 X112 Y151.82
M204 S1800
M205 X8 Y8
G1 F2400 E152.45948
G1 F1800 X112 Y148.229 E152.7103
M204 S3000
M205 X10 Y10
G0 F3000 X112.739 Y148.228
M204 S1800
M205 X8 Y8
G1 F1800 X118.957 Y151.818 E153.21179
M204 S3000
M205 X10 Y10
G0 F3000 X120 Y151.82
M204 S1800
M205 X8 Y8
G1 F1800 X120 Y148.229 E153.46261
M204 S3000
M205 X10 Y10
G1 F2400 E147.46261
G0 F3000 X121.041 Y151.819
M204 S1800
M205 X8 Y8
G1 F2400 E153.46261
G1 F1800 X127.261 Y148.227 E153.96429
M204 S3000
M205 X10 Y10
G0 F3000 X128 Y148.228
M204 S1800
M205 X8 Y8
G1 F1800 X128 Y151.82 E154.21518
M204 S3000
M205 X10 Y10
G1 F2400 E148.21518
G0 F3000 X128.738 Y148.228
M204 S1800
M205 X8 Y8
G1 F2400 E154.21518
G1 F1800 X134.957 Y151.818 E154.71673
M204 S3000
M205 X10 Y10
G0 F3000 X136 Y151.82
M204 S1800
M205 X8 Y8
G1 F1800 X136 Y148.228 E154.96762
M204 S3000
M205 X10 Y10
G1 F2400 E148.96762
G0 F3000 X137.04 Y151.819
M204 S1800
M205 X8 Y8
G1 F2400 E154.96762
G1 F1800 X143.263 Y148.227 E155.46949
M204 S3000
M205 X10 Y10
G0 F3000 X144 Y148.227
M204 S1800
M205 X8 Y8
G1 F1800 X144 Y151.82 E155.72044
M204 S3000
M205 X10 Y10
G1 F2400 E149.72044
G0 F3000 X144.736 Y148.226
M204 S1800
M205 X8 Y8
G1 F2400 E155.72044
G1 F1800 X150.958 Y151.818 E156.22225
M204 S3000
M205 X10 Y10
G0 F3000 X152 Y151.82
M204 S1800
M205 X8 Y8
G1 F1800 X152 Y148.227 E156.47321
M204 S3000
M205 X10 Y10
G1 F2400 E150.47321
G0 F3000 X153.04 Y151.819
M204 S1800
M205 X8 Y8
G1 F2400 E156.47321
G1 F1800 X159.264 Y148.226 E156.97517
M204 S3000
M205 X10 Y10
G0 F3000 X160 Y148.226
M204 S1800
M205 X8 Y8
G1 F1800 X160 Y151.82 E157.22619
M204 S3000
M205 X10 Y10
G1 F2400 E151.22619
G0 F3000 X160.734 Y148.225
M204 S1800
M205 X8 Y8
G1 F2400 E157.22619
G1 F1800 X166.957 Y151.818 E157.72809
M204 S3000
M205 X10 Y10
G0 F3000 X168 Y151.82
M204 S1800
M205 X8 Y8
G1 F1800 X168 Y148.226 E157.97912
M204 S3000
M205 X10 Y10
G1 F2400 E151.97912
G0 F3000 X169.04 Y151.819
M204 S1800
M205 X8 Y8
G1 F2400 E157.97912
G1 F1800 X175.265 Y148.225 E158.48118
M204 S3000
M205 X10 Y10
G0 F3000 X176 Y148.225
M204 S1800
M205 X8 Y8
G1 F1800 X176 Y151.82 E158.73227
M204 S3000
M205 X10 Y10
G1 F2400 E152.73227
G0 F3000 X176.733 Y148.225
M204 S1800
M205 X8 Y8
G1 F2400 E158.73227
G1 F1800 X182.957 Y151.818 E159.23423
M204 S3000
M205 X10 Y10
G0 F3000 X184 Y151.82
M204 S1800
M205 X8 Y8
G1 F1800 X184 Y148.225 E159.48533
M204 S3000
M205 X10 Y10
G1 F2400 E153.48533
G0 F3000 X185.04 Y151.819
M204 S1800
M205 X8 Y8
G1 F2400 E159.48533
G1 F1800 X191.259 Y148.229 E159.98689
M204 S3000
M205 X10 Y10
G0 F3000 X191.26 Y147.374
M204 S1800
M205 X8 Y8
G1 F1800 X187.668 Y145.3 E160.27659
M204 S3000
M205 X10 Y10
G1 F2400 E154.27659
G0 F3000 X187.669 Y141.064
M204 S1800
M205 X8 Y8
G1 F2400 E160.27659
G1 F1800 X191.258 Y138.991 E160.56608
M204 S3000
M205 X10 Y10
G0 F3000 X191.26 Y138.137
M204 S1800
M205 X8 Y8
G1 F1800 X187.669 Y136.063 E160.85573
M204 S3000
M205 X10 Y10
G1 F2400 E154.85573
G0 F3000 X187.669 Y131.826
M204 S1800
M205 X8 Y8
G1 F2400 E160.85573
G1 F1800 X191.258 Y129.754 E161.14518
M204 S3000
M205 X10 Y10
G0 F3000 X191.26 Y128.899
M204 S1800
M205 X8 Y8
G1 F1800 X187.668 Y126.825 E161.43489
M204 S3000
M205 X10 Y10
G1 F2400 E155.43489
